(G-CODE GENERATED BY FLATCAM v8.994 - www.flatcam.org - Version Date: 2020/11/7)

(Name: Gerber_BottomLayer.GBL_iso_combined_cnc)
(Type: G-code from Geometry)
(Units: MM)

(Created on Friday, 05 July 2024 at 16:53)

(This preprocessor is the default preprocessor used by FlatCAM.)
(It is made to work with MACH3 compatible motion controllers.)

(TOOL DIAMETER: 0.2 mm)
(Feedrate_XY: 120.0 mm/min)
(Feedrate_Z: 60.0 mm/min)
(Feedrate rapids 1500.0 mm/min)

(Z_Cut: -0.1866 mm)
(Z_Move: 2.0 mm)
(Z Start: None mm)
(Z End: 15.0 mm)
(X,Y End: None mm)
(Steps per circle: 64)
(Preprocessor Geometry: default)

(X range:   -0.8200 ...   33.2645  mm)
(Y range:   -0.8200 ...   29.9606  mm)

(Spindle Speed: 0.0 RPM)
G21
G90
G94

G01 F120.00

M5
G00 Z15.0000
G00 X0.0000 Y0.0000
T1
M6    
(MSG, Change to Tool Dia = 0.2000)
M0
G00 Z15.0000

M03
G01 F120.00
G00 X2.1378 Y4.4225
G01 F60.00
G01 Z-0.1866
G01 F120.00
G01 X6.5992 Y4.4225
G01 X11.4401 Y-0.4181
G01 X11.4985 Y-0.4713
G01 X11.5290 Y-0.4976
G01 X11.5607 Y-0.5224
G01 X11.6080 Y-0.5575
G01 X11.6410 Y-0.5806
G01 X11.6578 Y-0.5916
G01 X11.7255 Y-0.6325
G01 X11.7605 Y-0.6523
G01 X11.7965 Y-0.6704
G01 X11.8680 Y-0.7040
G01 X11.9052 Y-0.7194
G01 X11.9241 Y-0.7264
G01 X11.9986 Y-0.7528
G01 X12.0371 Y-0.7644
G01 X12.1137 Y-0.7839
G01 X12.1529 Y-0.7927
G01 X12.1926 Y-0.7996
G01 X12.2509 Y-0.8082
G01 X12.2908 Y-0.8132
G01 X12.3310 Y-0.8161
G01 X12.3898 Y-0.8190
G01 X12.4300 Y-0.8200
G01 X26.2576 Y-0.8198
G01 X26.3365 Y-0.8161
G01 X26.3767 Y-0.8132
G01 X26.4166 Y-0.8082
G01 X26.4947 Y-0.7964
G01 X26.5342 Y-0.7885
G01 X26.6109 Y-0.7696
G01 X26.6497 Y-0.7588
G01 X26.6689 Y-0.7528
G01 X26.7434 Y-0.7264
G01 X26.7810 Y-0.7119
G01 X26.8178 Y-0.6956
G01 X26.8891 Y-0.6616
G01 X26.9246 Y-0.6426
G01 X26.9925 Y-0.6022
G01 X27.0265 Y-0.5806
G01 X27.0594 Y-0.5575
G01 X27.1228 Y-0.5102
G01 X27.1539 Y-0.4846
G01 X27.2126 Y-0.4318
G01 X27.2417 Y-0.4040
G01 X31.6442 Y3.9985
G01 X31.7599 Y4.0154
G01 X31.7995 Y4.0223
G01 X31.8388 Y4.0311
G01 X31.9340 Y4.0549
G01 X31.9728 Y4.0657
G01 X32.0110 Y4.0783
G01 X32.1034 Y4.1114
G01 X32.1409 Y4.1258
G01 X32.1777 Y4.1421
G01 X32.2665 Y4.1841
G01 X32.3024 Y4.2022
G01 X32.3374 Y4.2220
G01 X32.4387 Y4.2831
G01 X32.4722 Y4.3054
G01 X32.5673 Y4.3757
G01 X32.5991 Y4.4004
G01 X32.6295 Y4.4267
G01 X32.7170 Y4.5063
G01 X32.7454 Y4.5348
G01 X32.8251 Y4.6222
G01 X32.8513 Y4.6527
G01 X32.8761 Y4.6844
G01 X32.9346 Y4.7633
G01 X32.9577 Y4.7962
G01 X32.9793 Y4.8302
G01 X33.0297 Y4.9143
G01 X33.0496 Y4.9494
G01 X33.0677 Y4.9853
G01 X33.1180 Y5.0923
G01 X33.1259 Y5.1108
G01 X33.1404 Y5.1484
G01 X33.1735 Y5.2408
G01 X33.1861 Y5.2790
G01 X33.1968 Y5.3178
G01 X33.2253 Y5.4325
G01 X33.2332 Y5.4720
G01 X33.2364 Y5.4919
G01 X33.2508 Y5.5890
G01 X33.2557 Y5.6289
G01 X33.2587 Y5.6690
G01 X33.2635 Y5.7671
G01 X33.2645 Y5.8073
G01 X33.2635 Y5.8475
G01 X33.2587 Y5.9456
G01 X33.2574 Y5.9656
G01 X33.2535 Y6.0057
G01 X33.2332 Y6.1426
G01 X33.2295 Y6.1624
G01 X33.2207 Y6.2016
G01 X33.1968 Y6.2968
G01 X33.1861 Y6.3356
G01 X33.1735 Y6.3738
G01 X33.1404 Y6.4662
G01 X33.1259 Y6.5038
G01 X33.1180 Y6.5223
G01 X33.0677 Y6.6293
G01 X33.0588 Y6.6474
G01 X33.0399 Y6.6829
G01 X32.9687 Y6.8016
G01 X32.9577 Y6.8184
G01 X32.9346 Y6.8513
G01 X32.8647 Y6.9451
G01 X32.8647 Y24.9895
G01 X32.9346 Y25.0833
G01 X32.9577 Y25.1162
G01 X32.9793 Y25.1502
G01 X33.0297 Y25.2343
G01 X33.0496 Y25.2694
G01 X33.0677 Y25.3053
G01 X33.1096 Y25.3940
G01 X33.1259 Y25.4308
G01 X33.1404 Y25.4684
G01 X33.1735 Y25.5608
G01 X33.1800 Y25.5798
G01 X33.1917 Y25.6183
G01 X33.2207 Y25.7330
G01 X33.2295 Y25.7722
G01 X33.2364 Y25.8119
G01 X33.2508 Y25.9090
G01 X33.2557 Y25.9489
G01 X33.2587 Y25.9890
G01 X33.2635 Y26.0871
G01 X33.2645 Y26.1273
G01 X33.2635 Y26.1675
G01 X33.2574 Y26.2856
G01 X33.2535 Y26.3257
G01 X33.2508 Y26.3456
G01 X33.2364 Y26.4427
G01 X33.2295 Y26.4824
G01 X33.2207 Y26.5216
G01 X33.1968 Y26.6168
G01 X33.1861 Y26.6556
G01 X33.1735 Y26.6938
G01 X33.1404 Y26.7862
G01 X33.1259 Y26.8238
G01 X33.1096 Y26.8606
G01 X33.0677 Y26.9493
G01 X33.0588 Y26.9674
G01 X33.0399 Y27.0029
G01 X32.9793 Y27.1044
G01 X32.9577 Y27.1384
G01 X32.9346 Y27.1713
G01 X32.8761 Y27.2502
G01 X32.8513 Y27.2819
G01 X32.8251 Y27.3124
G01 X32.7454 Y27.3998
G01 X32.7170 Y27.4283
G01 X32.7022 Y27.4420
G01 X32.6145 Y27.5212
G01 X32.5833 Y27.5468
G01 X32.4885 Y27.6174
G01 X32.4556 Y27.6406
G01 X32.4216 Y27.6621
G01 X32.3374 Y27.7126
G01 X32.3024 Y27.7324
G01 X32.2665 Y27.7505
G01 X32.1594 Y27.8008
G01 X32.1223 Y27.8162
G01 X32.0110 Y27.8563
G01 X31.9728 Y27.8689
G01 X31.9340 Y27.8797
G01 X31.8388 Y27.9035
G01 X31.7995 Y27.9123
G01 X31.7599 Y27.9192
G01 X31.6429 Y27.9363
G01 X31.6028 Y27.9403
G01 X31.4847 Y27.9463
G01 X31.4445 Y27.9473
G01 X31.4042 Y27.9463
G01 X31.2861 Y27.9403
G01 X31.2461 Y27.9363
G01 X31.1291 Y27.9192
G01 X31.0894 Y27.9123
G01 X31.0501 Y27.9035
G01 X30.9549 Y27.8797
G01 X30.9161 Y27.8689
G01 X30.8779 Y27.8563
G01 X30.7667 Y27.8162
G01 X30.7295 Y27.8008
G01 X30.6225 Y27.7505
G01 X30.5865 Y27.7324
G01 X30.5689 Y27.7227
G01 X30.4673 Y27.6621
G01 X30.4333 Y27.6406
G01 X30.4004 Y27.6174
G01 X30.3056 Y27.5468
G01 X30.2745 Y27.5212
G01 X30.1867 Y27.4420
G01 X30.1575 Y27.4142
G01 X30.1298 Y27.3851
G01 X30.0639 Y27.3124
G01 X30.0376 Y27.2819
G01 X30.0128 Y27.2502
G01 X29.9426 Y27.1550
G01 X29.9202 Y27.1216
G01 X29.8592 Y27.0203
G01 X29.8394 Y26.9852
G01 X29.8213 Y26.9493
G01 X29.7793 Y26.8606
G01 X29.7630 Y26.8238
G01 X29.7485 Y26.7862
G01 X29.7155 Y26.6938
G01 X29.7028 Y26.6556
G01 X29.6921 Y26.6168
G01 X29.6682 Y26.5216
G01 X29.6594 Y26.4824
G01 X29.6526 Y26.4427
G01 X29.6382 Y26.3456
G01 X29.6354 Y26.3257
G01 X29.6315 Y26.2856
G01 X29.6247 Y26.1474
G01 X29.6245 Y26.1273
G01 X29.6254 Y26.0871
G01 X29.6315 Y25.9690
G01 X29.6354 Y25.9289
G01 X29.6382 Y25.9090
G01 X29.6526 Y25.8119
G01 X29.6594 Y25.7722
G01 X29.6682 Y25.7330
G01 X29.6972 Y25.6183
G01 X29.7028 Y25.5990
G01 X29.7155 Y25.5608
G01 X29.7485 Y25.4684
G01 X29.7630 Y25.4308
G01 X29.7793 Y25.3940
G01 X29.8213 Y25.3053
G01 X29.8394 Y25.2694
G01 X29.8592 Y25.2343
G01 X29.9097 Y25.1502
G01 X29.9312 Y25.1162
G01 X29.9544 Y25.0833
G01 X30.0241 Y24.9896
G01 X30.0241 Y6.9450
G01 X29.9544 Y6.8513
G01 X29.9312 Y6.8184
G01 X29.9097 Y6.7844
G01 X29.8592 Y6.7003
G01 X29.8394 Y6.6652
G01 X29.8301 Y6.6474
G01 X29.7793 Y6.5406
G01 X29.7630 Y6.5038
G01 X29.7485 Y6.4662
G01 X29.7089 Y6.3548
G01 X29.6972 Y6.3163
G01 X29.6921 Y6.2968
G01 X29.6682 Y6.2016
G01 X29.6594 Y6.1624
G01 X29.6526 Y6.1227
G01 X29.6356 Y6.0071
G01 X25.6491 Y2.0206
G01 X25.0029 Y2.0206
G01 X27.0933 Y4.1109
G01 X27.1134 Y4.1184
G01 X27.1506 Y4.1338
G01 X27.2576 Y4.1841
G01 X27.2935 Y4.2022
G01 X27.3286 Y4.2220
G01 X27.4127 Y4.2725
G01 X27.4299 Y4.2831
G01 X27.4633 Y4.3054
G01 X27.5745 Y4.3878
G01 X27.5902 Y4.4004
G01 X27.6207 Y4.4267
G01 X27.6934 Y4.4926
G01 X27.7225 Y4.5204
G01 X27.7503 Y4.5495
G01 X27.8162 Y4.6222
G01 X27.8425 Y4.6527
G01 X27.8550 Y4.6684
G01 X27.9257 Y4.7633
G01 X27.9489 Y4.7962
G01 X27.9704 Y4.8302
G01 X28.0208 Y4.9143
G01 X28.0407 Y4.9494
G01 X28.0588 Y4.9853
G01 X28.1007 Y5.0740
G01 X28.1171 Y5.1108
G01 X28.1315 Y5.1484
G01 X28.1711 Y5.2598
G01 X28.1828 Y5.2983
G01 X28.1880 Y5.3178
G01 X28.2118 Y5.4130
G01 X28.2206 Y5.4522
G01 X28.2275 Y5.4919
G01 X28.2419 Y5.5890
G01 X28.2468 Y5.6289
G01 X28.2498 Y5.6690
G01 X28.2546 Y5.7671
G01 X28.2556 Y5.8073
G01 X28.2546 Y5.8475
G01 X28.2498 Y5.9456
G01 X28.2468 Y5.9857
G01 X28.2419 Y6.0256
G01 X28.2275 Y6.1227
G01 X28.2206 Y6.1624
G01 X28.2118 Y6.2016
G01 X28.1880 Y6.2968
G01 X28.1772 Y6.3356
G01 X28.1646 Y6.3738
G01 X28.1315 Y6.4662
G01 X28.1171 Y6.5038
G01 X28.1007 Y6.5406
G01 X28.0588 Y6.6293
G01 X28.0407 Y6.6652
G01 X28.0208 Y6.7003
G01 X27.9704 Y6.7844
G01 X27.9489 Y6.8184
G01 X27.9257 Y6.8513
G01 X27.8559 Y6.9450
G01 X27.8559 Y24.9896
G01 X27.9257 Y25.0833
G01 X27.9489 Y25.1162
G01 X27.9704 Y25.1502
G01 X28.0208 Y25.2343
G01 X28.0407 Y25.2694
G01 X28.0588 Y25.3053
G01 X28.1007 Y25.3940
G01 X28.1171 Y25.4308
G01 X28.1315 Y25.4684
G01 X28.1646 Y25.5608
G01 X28.1772 Y25.5990
G01 X28.1828 Y25.6183
G01 X28.2118 Y25.7330
G01 X28.2206 Y25.7722
G01 X28.2275 Y25.8119
G01 X28.2446 Y25.9289
G01 X28.2486 Y25.9690
G01 X28.2546 Y26.0871
G01 X28.2553 Y26.1072
G01 X28.2553 Y26.1474
G01 X28.2498 Y26.2656
G01 X28.2468 Y26.3057
G01 X28.2419 Y26.3456
G01 X28.2275 Y26.4427
G01 X28.2206 Y26.4824
G01 X28.2118 Y26.5216
G01 X28.1880 Y26.6168
G01 X28.1772 Y26.6556
G01 X28.1646 Y26.6938
G01 X28.1315 Y26.7862
G01 X28.1171 Y26.8238
G01 X28.1007 Y26.8606
G01 X28.0588 Y26.9493
G01 X28.0407 Y26.9852
G01 X28.0208 Y27.0203
G01 X27.9704 Y27.1044
G01 X27.9489 Y27.1384
G01 X27.9257 Y27.1713
G01 X27.8672 Y27.2502
G01 X27.8425 Y27.2819
G01 X27.8162 Y27.3124
G01 X27.7503 Y27.3851
G01 X27.7225 Y27.4142
G01 X27.6934 Y27.4420
G01 X27.6207 Y27.5079
G01 X27.5902 Y27.5342
G01 X27.5585 Y27.5589
G01 X27.4796 Y27.6174
G01 X27.4633 Y27.6292
G01 X27.4299 Y27.6515
G01 X27.3286 Y27.7126
G01 X27.2935 Y27.7324
G01 X27.2576 Y27.7505
G01 X27.1506 Y27.8008
G01 X27.1321 Y27.8088
G01 X27.0945 Y27.8232
G01 X27.0021 Y27.8563
G01 X26.9639 Y27.8689
G01 X26.9251 Y27.8797
G01 X26.8299 Y27.9035
G01 X26.7907 Y27.9123
G01 X26.7709 Y27.9160
G01 X26.6539 Y27.9336
G01 X26.6140 Y27.9385
G01 X26.5738 Y27.9415
G01 X26.4557 Y27.9471
G01 X26.4356 Y27.9473
G01 X26.3954 Y27.9463
G01 X26.2973 Y27.9415
G01 X26.2572 Y27.9385
G01 X26.2173 Y27.9336
G01 X26.1202 Y27.9192
G01 X26.1003 Y27.9160
G01 X26.0608 Y27.9082
G01 X25.9461 Y27.8797
G01 X25.9073 Y27.8689
G01 X25.8691 Y27.8563
G01 X25.7578 Y27.8162
G01 X25.7206 Y27.8008
G01 X25.7023 Y27.7925
G01 X25.6136 Y27.7505
G01 X25.5776 Y27.7324
G01 X25.5426 Y27.7126
G01 X25.4585 Y27.6621
G01 X25.4413 Y27.6515
G01 X25.4079 Y27.6292
G01 X25.3127 Y27.5589
G01 X25.2810 Y27.5342
G01 X25.2505 Y27.5079
G01 X25.1631 Y27.4283
G01 X25.1487 Y27.4142
G01 X25.1209 Y27.3851
G01 X25.0550 Y27.3124
G01 X25.0287 Y27.2819
G01 X25.0039 Y27.2502
G01 X24.9455 Y27.1713
G01 X24.9337 Y27.1550
G01 X24.9113 Y27.1216
G01 X24.8503 Y27.0203
G01 X24.8305 Y26.9852
G01 X24.8124 Y26.9493
G01 X24.7621 Y26.8423
G01 X24.7467 Y26.8051
G01 X24.7396 Y26.7862
G01 X24.7066 Y26.6938
G01 X24.6940 Y26.6556
G01 X24.6832 Y26.6168
G01 X24.6594 Y26.5216
G01 X24.6547 Y26.5021
G01 X24.6469 Y26.4626
G01 X24.6266 Y26.3257
G01 X24.6226 Y26.2856
G01 X24.6214 Y26.2656
G01 X24.6166 Y26.1675
G01 X24.6156 Y26.1273
G01 X24.6166 Y26.0871
G01 X24.6214 Y25.9890
G01 X24.6244 Y25.9489
G01 X24.6293 Y25.9090
G01 X24.6437 Y25.8119
G01 X24.6469 Y25.7920
G01 X24.6547 Y25.7525
G01 X24.6832 Y25.6378
G01 X24.6884 Y25.6183
G01 X24.7000 Y25.5798
G01 X24.7467 Y25.4495
G01 X24.7621 Y25.4123
G01 X24.7704 Y25.3940
G01 X24.8124 Y25.3053
G01 X24.8305 Y25.2694
G01 X24.8503 Y25.2343
G01 X24.9008 Y25.1502
G01 X24.9113 Y25.1330
G01 X24.9337 Y25.0996
G01 X25.0153 Y24.9895
G01 X25.0153 Y6.9451
G01 X24.9455 Y6.8513
G01 X24.9223 Y6.8184
G01 X24.9008 Y6.7844
G01 X24.8503 Y6.7003
G01 X24.8305 Y6.6652
G01 X24.8124 Y6.6293
G01 X24.7704 Y6.5406
G01 X24.7541 Y6.5038
G01 X24.7396 Y6.4662
G01 X24.7066 Y6.3738
G01 X24.6940 Y6.3356
G01 X24.6832 Y6.2968
G01 X24.6594 Y6.2016
G01 X24.6506 Y6.1624
G01 X24.6437 Y6.1227
G01 X24.6293 Y6.0256
G01 X24.6244 Y5.9857
G01 X24.6214 Y5.9456
G01 X24.6166 Y5.8475
G01 X24.6156 Y5.8073
G01 X24.6166 Y5.7671
G01 X24.6221 Y5.6570
G01 X23.1447 Y4.1796
G01 X22.0969 Y4.1796
G01 X22.1245 Y4.1929
G01 X22.1600 Y4.2119
G01 X22.2616 Y4.2725
G01 X22.2956 Y4.2940
G01 X22.3285 Y4.3172
G01 X22.4233 Y4.3878
G01 X22.4391 Y4.4004
G01 X22.4695 Y4.4267
G01 X22.5422 Y4.4926
G01 X22.5714 Y4.5204
G01 X22.5991 Y4.5495
G01 X22.6784 Y4.6373
G01 X22.7039 Y4.6684
G01 X22.7161 Y4.6844
G01 X22.7863 Y4.7796
G01 X22.8087 Y4.8130
G01 X22.8697 Y4.9143
G01 X22.8896 Y4.9494
G01 X22.9077 Y4.9853
G01 X22.9496 Y5.0740
G01 X22.9659 Y5.1108
G01 X22.9734 Y5.1295
G01 X23.0135 Y5.2408
G01 X23.0261 Y5.2790
G01 X23.0368 Y5.3178
G01 X23.0653 Y5.4325
G01 X23.0732 Y5.4720
G01 X23.0764 Y5.4919
G01 X23.0908 Y5.5890
G01 X23.0957 Y5.6289
G01 X23.0987 Y5.6690
G01 X23.1042 Y5.7872
G01 X23.1045 Y5.8073
G01 X23.1035 Y5.8475
G01 X23.0974 Y5.9656
G01 X23.0935 Y6.0057
G01 X23.0764 Y6.1227
G01 X23.0695 Y6.1624
G01 X23.0607 Y6.2016
G01 X23.0317 Y6.3163
G01 X23.0200 Y6.3548
G01 X23.0135 Y6.3738
G01 X22.9804 Y6.4662
G01 X22.9659 Y6.5038
G01 X22.9496 Y6.5406
G01 X22.9077 Y6.6293
G01 X22.8896 Y6.6652
G01 X22.8697 Y6.7003
G01 X22.8193 Y6.7844
G01 X22.7977 Y6.8184
G01 X22.7746 Y6.8513
G01 X22.7047 Y6.9451
G01 X22.7047 Y24.9895
G01 X22.7746 Y25.0833
G01 X22.7977 Y25.1162
G01 X22.8193 Y25.1502
G01 X22.8697 Y25.2343
G01 X22.8896 Y25.2694
G01 X22.9077 Y25.3053
G01 X22.9496 Y25.3940
G01 X22.9659 Y25.4308
G01 X22.9804 Y25.4684
G01 X23.0135 Y25.5608
G01 X23.0261 Y25.5990
G01 X23.0317 Y25.6183
G01 X23.0607 Y25.7330
G01 X23.0695 Y25.7722
G01 X23.0764 Y25.8119
G01 X23.0935 Y25.9289
G01 X23.0974 Y25.9690
G01 X23.1035 Y26.0871
G01 X23.1045 Y26.1273
G01 X23.1042 Y26.1474
G01 X23.0987 Y26.2656
G01 X23.0957 Y26.3057
G01 X23.0908 Y26.3456
G01 X23.0764 Y26.4427
G01 X23.0695 Y26.4824
G01 X23.0607 Y26.5216
G01 X23.0368 Y26.6168
G01 X23.0261 Y26.6556
G01 X23.0135 Y26.6938
G01 X22.9804 Y26.7862
G01 X22.9659 Y26.8238
G01 X22.9496 Y26.8606
G01 X22.9077 Y26.9493
G01 X22.8896 Y26.9852
G01 X22.8697 Y27.0203
G01 X22.8193 Y27.1044
G01 X22.7977 Y27.1384
G01 X22.7746 Y27.1713
G01 X22.7161 Y27.2502
G01 X22.6913 Y27.2819
G01 X22.6651 Y27.3124
G01 X22.5854 Y27.3998
G01 X22.5714 Y27.4142
G01 X22.5422 Y27.4420
G01 X22.4695 Y27.5079
G01 X22.4391 Y27.5342
G01 X22.4073 Y27.5589
G01 X22.3285 Y27.6174
G01 X22.2956 Y27.6406
G01 X22.2616 Y27.6621
G01 X22.1774 Y27.7126
G01 X22.1424 Y27.7324
G01 X22.1065 Y27.7505
G01 X22.0177 Y27.7925
G01 X21.9994 Y27.8008
G01 X21.9623 Y27.8162
G01 X21.8510 Y27.8563
G01 X21.8128 Y27.8689
G01 X21.7934 Y27.8745
G01 X21.6592 Y27.9082
G01 X21.6395 Y27.9123
G01 X21.5999 Y27.9192
G01 X21.4829 Y27.9363
G01 X21.4428 Y27.9403
G01 X21.4227 Y27.9415
G01 X21.3247 Y27.9463
G01 X21.2845 Y27.9473
G01 X21.2442 Y27.9463
G01 X21.1559 Y27.9420
G01 X18.4126 Y29.7301
G01 X18.3790 Y29.7509
G01 X18.3292 Y29.7801
G01 X18.2946 Y29.7992
G01 X18.2770 Y29.8081
G01 X18.2068 Y29.8409
G01 X18.1706 Y29.8566
G01 X18.1336 Y29.8705
G01 X18.0791 Y29.8896
G01 X18.0416 Y29.9018
G01 X18.0226 Y29.9072
G01 X17.9474 Y29.9259
G01 X17.9088 Y29.9344
G01 X17.8699 Y29.9410
G01 X17.8127 Y29.9493
G01 X17.7932 Y29.9519
G01 X17.7539 Y29.9557
G01 X17.6765 Y29.9597
G01 X17.6370 Y29.9606
G01 X15.4581 Y29.9604
G01 X15.3800 Y29.9568
G01 X15.3403 Y29.9539
G01 X15.3008 Y29.9491
G01 X15.2235 Y29.9375
G01 X15.1844 Y29.9298
G01 X15.1084 Y29.9112
G01 X15.0700 Y29.9007
G01 X15.0322 Y29.8884
G01 X14.9585 Y29.8621
G01 X14.9217 Y29.8470
G01 X14.8508 Y29.8141
G01 X14.8151 Y29.7964
G01 X10.5542 Y27.5477
G01 X2.1378 Y27.5477
G01 X2.0440 Y27.6175
G01 X2.0111 Y27.6406
G01 X1.9771 Y27.6622
G01 X1.8930 Y27.7126
G01 X1.8579 Y27.7325
G01 X1.8220 Y27.7506
G01 X1.7333 Y27.7925
G01 X1.6965 Y27.8088
G01 X1.6589 Y27.8233
G01 X1.5665 Y27.8564
G01 X1.5283 Y27.8690
G01 X1.4895 Y27.8797
G01 X1.3748 Y27.9082
G01 X1.3353 Y27.9161
G01 X1.3154 Y27.9193
G01 X1.2183 Y27.9337
G01 X1.1784 Y27.9386
G01 X1.1383 Y27.9416
G01 X1.0402 Y27.9464
G01 X1.0000 Y27.9474
G01 X0.9598 Y27.9464
G01 X0.8417 Y27.9403
G01 X0.8016 Y27.9364
G01 X0.7817 Y27.9337
G01 X0.6846 Y27.9193
G01 X0.6449 Y27.9124
G01 X0.6057 Y27.9036
G01 X0.5105 Y27.8797
G01 X0.4717 Y27.8690
G01 X0.4335 Y27.8564
G01 X0.3411 Y27.8233
G01 X0.3035 Y27.8088
G01 X0.2667 Y27.7925
G01 X0.1780 Y27.7506
G01 X0.1421 Y27.7325
G01 X0.1070 Y27.7126
G01 X0.0057 Y27.6516
G01 X-0.0277 Y27.6293
G01 X-0.0440 Y27.6175
G01 X-0.1229 Y27.5590
G01 X-0.1546 Y27.5342
G01 X-0.1851 Y27.5080
G01 X-0.2725 Y27.4284
G01 X-0.2869 Y27.4143
G01 X-0.3147 Y27.3852
G01 X-0.3939 Y27.2974
G01 X-0.4195 Y27.2663
G01 X-0.4901 Y27.1714
G01 X-0.5133 Y27.1385
G01 X-0.5348 Y27.1045
G01 X-0.5853 Y27.0203
G01 X-0.6051 Y26.9853
G01 X-0.6232 Y26.9494
G01 X-0.6735 Y26.8424
G01 X-0.6889 Y26.8052
G01 X-0.7290 Y26.6939
G01 X-0.7416 Y26.6557
G01 X-0.7524 Y26.6169
G01 X-0.7762 Y26.5217
G01 X-0.7850 Y26.4824
G01 X-0.7887 Y26.4626
G01 X-0.8063 Y26.3457
G01 X-0.8112 Y26.3058
G01 X-0.8142 Y26.2656
G01 X-0.8190 Y26.1676
G01 X-0.8200 Y26.1274
G01 X-0.8190 Y26.0871
G01 X-0.8142 Y25.9891
G01 X-0.8112 Y25.9490
G01 X-0.8063 Y25.9090
G01 X-0.7887 Y25.7921
G01 X-0.7809 Y25.7526
G01 X-0.7524 Y25.6378
G01 X-0.7416 Y25.5991
G01 X-0.7290 Y25.5608
G01 X-0.6959 Y25.4684
G01 X-0.6815 Y25.4309
G01 X-0.6735 Y25.4124
G01 X-0.6232 Y25.3054
G01 X-0.6051 Y25.2694
G01 X-0.5853 Y25.2344
G01 X-0.5348 Y25.1502
G01 X-0.5133 Y25.1162
G01 X-0.4901 Y25.0833
G01 X-0.4316 Y25.0045
G01 X-0.4069 Y24.9728
G01 X-0.3939 Y24.9574
G01 X-0.3147 Y24.8696
G01 X-0.2869 Y24.8404
G01 X-0.2578 Y24.8127
G01 X-0.1851 Y24.7468
G01 X-0.1546 Y24.7205
G01 X-0.1229 Y24.6957
G01 X-0.0440 Y24.6373
G01 X-0.0277 Y24.6255
G01 X0.0057 Y24.6031
G01 X0.1070 Y24.5421
G01 X0.1421 Y24.5223
G01 X0.1780 Y24.5042
G01 X0.2667 Y24.4622
G01 X0.3035 Y24.4459
G01 X0.3411 Y24.4314
G01 X0.4335 Y24.3984
G01 X0.4717 Y24.3857
G01 X0.5105 Y24.3750
G01 X0.6252 Y24.3465
G01 X0.6647 Y24.3387
G01 X0.7817 Y24.3211
G01 X0.8216 Y24.3161
G01 X0.8617 Y24.3132
G01 X0.9598 Y24.3084
G01 X1.0000 Y24.3074
G01 X1.0201 Y24.3076
G01 X1.1383 Y24.3132
G01 X1.1583 Y24.3144
G01 X1.1984 Y24.3184
G01 X1.3353 Y24.3387
G01 X1.3551 Y24.3423
G01 X1.3943 Y24.3512
G01 X1.5090 Y24.3801
G01 X1.5475 Y24.3918
G01 X1.5665 Y24.3984
G01 X1.6589 Y24.4314
G01 X1.6965 Y24.4459
G01 X1.7333 Y24.4622
G01 X1.8220 Y24.5042
G01 X1.8579 Y24.5223
G01 X1.8756 Y24.5320
G01 X1.9943 Y24.6031
G01 X2.0277 Y24.6255
G01 X2.0440 Y24.6373
G01 X2.1377 Y24.7071
G01 X10.9060 Y24.7071
G01 X10.9463 Y24.7080
G01 X10.9977 Y24.7104
G01 X11.0188 Y24.7116
G01 X11.0400 Y24.7134
G01 X11.0642 Y24.7160
G01 X11.1361 Y24.7262
G01 X11.1570 Y24.7295
G01 X11.1779 Y24.7333
G01 X11.2018 Y24.7383
G01 X11.2224 Y24.7432
G01 X11.2928 Y24.7608
G01 X11.3132 Y24.7667
G01 X11.3365 Y24.7739
G01 X11.4050 Y24.7980
G01 X11.4249 Y24.8053
G01 X11.4446 Y24.8131
G01 X11.4671 Y24.8227
G01 X11.4863 Y24.8315
G01 X11.5510 Y24.8621
G01 X14.4783 Y26.4067
G01 X14.4693 Y26.3456
G01 X14.4644 Y26.3057
G01 X14.4614 Y26.2656
G01 X14.4558 Y26.1474
G01 X14.4558 Y26.1072
G01 X14.4566 Y26.0871
G01 X14.4626 Y25.9690
G01 X14.4666 Y25.9289
G01 X14.4693 Y25.9090
G01 X14.4837 Y25.8119
G01 X14.4906 Y25.7722
G01 X14.4994 Y25.7330
G01 X14.5284 Y25.6183
G01 X14.5400 Y25.5798
G01 X14.5466 Y25.5608
G01 X14.5796 Y25.4684
G01 X14.5941 Y25.4308
G01 X14.6104 Y25.3940
G01 X14.6524 Y25.3053
G01 X14.6705 Y25.2694
G01 X14.6903 Y25.2343
G01 X14.7408 Y25.1502
G01 X14.7623 Y25.1162
G01 X14.7855 Y25.0833
G01 X14.8553 Y24.9895
G01 X14.8553 Y24.3381
G01 X11.0330 Y20.5159
G01 X9.4972 Y22.0517
G01 X9.4680 Y22.0794
G01 X9.4244 Y22.1190
G01 X9.3939 Y22.1453
G01 X9.3622 Y22.1700
G01 X9.2986 Y22.2169
G01 X9.2820 Y22.2283
G01 X9.2480 Y22.2498
G01 X9.1800 Y22.2902
G01 X9.1445 Y22.3092
G01 X9.0732 Y22.3432
G01 X9.0364 Y22.3595
G01 X8.9989 Y22.3740
G01 X8.9244 Y22.4004
G01 X8.8859 Y22.4121
G01 X8.8664 Y22.4172
G01 X8.8093 Y22.4315
G01 X8.7700 Y22.4404
G01 X8.7303 Y22.4472
G01 X8.6521 Y22.4586
G01 X8.6121 Y22.4625
G01 X8.5920 Y22.4638
G01 X8.5331 Y22.4667
G01 X8.4929 Y22.4677
G01 X2.1378 Y22.4677
G01 X2.0440 Y22.5375
G01 X2.0111 Y22.5606
G01 X1.9771 Y22.5822
G01 X1.8930 Y22.6326
G01 X1.8579 Y22.6525
G01 X1.8220 Y22.6706
G01 X1.7333 Y22.7125
G01 X1.6965 Y22.7288
G01 X1.6589 Y22.7433
G01 X1.5475 Y22.7829
G01 X1.5090 Y22.7946
G01 X1.4895 Y22.7997
G01 X1.3748 Y22.8282
G01 X1.3353 Y22.8361
G01 X1.2183 Y22.8537
G01 X1.1784 Y22.8586
G01 X1.1383 Y22.8616
G01 X1.0201 Y22.8671
G01 X1.0000 Y22.8674
G01 X0.9598 Y22.8664
G01 X0.8617 Y22.8616
G01 X0.8216 Y22.8586
G01 X0.7817 Y22.8537
G01 X0.6846 Y22.8393
G01 X0.6449 Y22.8324
G01 X0.6252 Y22.8282
G01 X0.4910 Y22.7946
G01 X0.4525 Y22.7829
G01 X0.4335 Y22.7764
G01 X0.3411 Y22.7433
G01 X0.3035 Y22.7288
G01 X0.2667 Y22.7125
G01 X0.1780 Y22.6706
G01 X0.1421 Y22.6525
G01 X0.1244 Y22.6428
G01 X0.0057 Y22.5716
G01 X-0.0277 Y22.5493
G01 X-0.0440 Y22.5375
G01 X-0.1229 Y22.4790
G01 X-0.1546 Y22.4542
G01 X-0.1851 Y22.4280
G01 X-0.2578 Y22.3621
G01 X-0.2725 Y22.3484
G01 X-0.3010 Y22.3199
G01 X-0.3806 Y22.2324
G01 X-0.4069 Y22.2020
G01 X-0.4316 Y22.1702
G01 X-0.4901 Y22.0914
G01 X-0.5133 Y22.0585
G01 X-0.5242 Y22.0416
G01 X-0.5853 Y21.9403
G01 X-0.5954 Y21.9229
G01 X-0.6144 Y21.8874
G01 X-0.6735 Y21.7624
G01 X-0.6815 Y21.7439
G01 X-0.6959 Y21.7063
G01 X-0.7356 Y21.5949
G01 X-0.7472 Y21.5564
G01 X-0.7524 Y21.5369
G01 X-0.7762 Y21.4417
G01 X-0.7850 Y21.4024
G01 X-0.7919 Y21.3628
G01 X-0.8063 Y21.2657
G01 X-0.8112 Y21.2258
G01 X-0.8130 Y21.2057
G01 X-0.8198 Y21.0675
G01 X-0.8198 Y21.0272
G01 X-0.8190 Y21.0071
G01 X-0.8142 Y20.9091
G01 X-0.8112 Y20.8690
G01 X-0.8063 Y20.8290
G01 X-0.7919 Y20.7320
G01 X-0.7850 Y20.6923
G01 X-0.7762 Y20.6530
G01 X-0.7524 Y20.5578
G01 X-0.7416 Y20.5191
G01 X-0.7290 Y20.4808
G01 X-0.6959 Y20.3884
G01 X-0.6815 Y20.3509
G01 X-0.6735 Y20.3324
G01 X-0.6144 Y20.2073
G01 X-0.6051 Y20.1894
G01 X-0.5853 Y20.1544
G01 X-0.5242 Y20.0531
G01 X-0.5019 Y20.0196
G01 X-0.4901 Y20.0033
G01 X-0.4316 Y19.9245
G01 X-0.4069 Y19.8928
G01 X-0.3806 Y19.8623
G01 X-0.3147 Y19.7896
G01 X-0.3010 Y19.7748
G01 X-0.2725 Y19.7464
G01 X-0.1700 Y19.6534
G01 X-0.1389 Y19.6279
G01 X-0.1229 Y19.6157
G01 X-0.0440 Y19.5573
G01 X-0.0111 Y19.5341
G01 X0.0229 Y19.5126
G01 X0.1070 Y19.4621
G01 X0.1421 Y19.4423
G01 X0.1780 Y19.4242
G01 X0.2667 Y19.3822
G01 X0.3035 Y19.3659
G01 X0.3411 Y19.3514
G01 X0.4525 Y19.3118
G01 X0.4910 Y19.3001
G01 X0.5105 Y19.2950
G01 X0.6057 Y19.2712
G01 X0.6449 Y19.2623
G01 X0.6846 Y19.2555
G01 X0.7817 Y19.2411
G01 X0.8216 Y19.2361
G01 X0.8417 Y19.2344
G01 X0.9598 Y19.2284
G01 X1.0000 Y19.2274
G01 X1.0402 Y19.2284
G01 X1.1583 Y19.2344
G01 X1.1784 Y19.2361
G01 X1.2183 Y19.2411
G01 X1.3154 Y19.2555
G01 X1.3551 Y19.2623
G01 X1.3943 Y19.2712
G01 X1.4895 Y19.2950
G01 X1.5090 Y19.3001
G01 X1.5475 Y19.3118
G01 X1.6589 Y19.3514
G01 X1.6965 Y19.3659
G01 X1.7333 Y19.3822
G01 X1.8401 Y19.4330
G01 X1.8579 Y19.4423
G01 X1.8930 Y19.4621
G01 X1.9771 Y19.5126
G01 X2.0111 Y19.5341
G01 X2.0440 Y19.5573
G01 X2.1377 Y19.6271
G01 X7.9046 Y19.6271
G01 X9.6127 Y17.9190
G01 X9.6130 Y11.0297
G01 X9.6166 Y10.9508
G01 X9.6196 Y10.9106
G01 X9.6245 Y10.8707
G01 X9.6331 Y10.8124
G01 X9.6400 Y10.7727
G01 X9.6488 Y10.7335
G01 X9.6632 Y10.6763
G01 X9.6739 Y10.6375
G01 X9.6865 Y10.5993
G01 X9.7064 Y10.5439
G01 X9.7208 Y10.5063
G01 X9.7372 Y10.4695
G01 X9.7623 Y10.4163
G01 X9.7804 Y10.3803
G01 X9.8003 Y10.3453
G01 X9.8306 Y10.2948
G01 X9.8521 Y10.2607
G01 X9.8753 Y10.2278
G01 X9.9104 Y10.1805
G01 X9.9351 Y10.1488
G01 X9.9614 Y10.1183
G01 X10.0147 Y10.0599
G01 X14.4668 Y5.6075
G01 X14.4869 Y5.4720
G01 X14.4947 Y5.4325
G01 X14.4994 Y5.4130
G01 X14.5232 Y5.3178
G01 X14.5340 Y5.2790
G01 X14.5466 Y5.2408
G01 X14.5796 Y5.1484
G01 X14.5941 Y5.1108
G01 X14.6021 Y5.0923
G01 X14.6524 Y4.9853
G01 X14.6705 Y4.9494
G01 X14.6903 Y4.9143
G01 X14.7408 Y4.8302
G01 X14.7513 Y4.8130
G01 X14.7737 Y4.7796
G01 X14.8561 Y4.6684
G01 X14.8687 Y4.6527
G01 X14.8950 Y4.6222
G01 X14.9609 Y4.5495
G01 X14.9887 Y4.5204
G01 X15.0178 Y4.4926
G01 X15.1056 Y4.4134
G01 X15.1367 Y4.3878
G01 X15.1527 Y4.3757
G01 X15.2315 Y4.3172
G01 X15.2645 Y4.2940
G01 X15.2985 Y4.2725
G01 X15.4000 Y4.2119
G01 X15.4355 Y4.1929
G01 X15.4631 Y4.1796
G01 X14.1613 Y4.1796
G01 X6.4849 Y11.8561
G01 X6.4557 Y11.8838
G01 X6.4121 Y11.9234
G01 X6.3816 Y11.9497
G01 X6.3499 Y11.9744
G01 X6.3025 Y12.0095
G01 X6.2696 Y12.0327
G01 X6.2528 Y12.0437
G01 X6.1677 Y12.0946
G01 X6.1501 Y12.1044
G01 X6.1141 Y12.1224
G01 X6.0609 Y12.1476
G01 X6.0241 Y12.1639
G01 X5.9865 Y12.1784
G01 X5.9120 Y12.2048
G01 X5.8929 Y12.2109
G01 X5.8541 Y12.2216
G01 X5.7969 Y12.2360
G01 X5.7576 Y12.2448
G01 X5.7180 Y12.2517
G01 X5.6398 Y12.2630
G01 X5.5997 Y12.2669
G01 X5.5796 Y12.2682
G01 X5.5208 Y12.2711
G01 X5.4806 Y12.2721
G01 X2.4203 Y12.2721
G01 X2.4203 Y14.8296
G01 X2.5019 Y14.9396
G01 X2.5133 Y14.9562
G01 X2.5348 Y14.9902
G01 X2.5853 Y15.0744
G01 X2.6051 Y15.1094
G01 X2.6232 Y15.1454
G01 X2.6652 Y15.2341
G01 X2.6735 Y15.2524
G01 X2.6889 Y15.2896
G01 X2.7356 Y15.4199
G01 X2.7472 Y15.4584
G01 X2.7524 Y15.4778
G01 X2.7762 Y15.5730
G01 X2.7850 Y15.6123
G01 X2.7919 Y15.6520
G01 X2.8090 Y15.7690
G01 X2.8130 Y15.8090
G01 X2.8142 Y15.8291
G01 X2.8190 Y15.9271
G01 X2.8200 Y15.9674
G01 X2.8190 Y16.0076
G01 X2.8142 Y16.1056
G01 X2.8130 Y16.1257
G01 X2.8090 Y16.1658
G01 X2.7887 Y16.3026
G01 X2.7850 Y16.3224
G01 X2.7762 Y16.3617
G01 X2.7524 Y16.4569
G01 X2.7416 Y16.4957
G01 X2.7290 Y16.5339
G01 X2.6959 Y16.6263
G01 X2.6815 Y16.6639
G01 X2.6652 Y16.7006
G01 X2.6232 Y16.7894
G01 X2.6051 Y16.8253
G01 X2.5954 Y16.8429
G01 X2.5348 Y16.9445
G01 X2.5133 Y16.9785
G01 X2.4901 Y17.0114
G01 X2.4316 Y17.0902
G01 X2.4069 Y17.1220
G01 X2.3806 Y17.1524
G01 X2.3147 Y17.2252
G01 X2.2869 Y17.2543
G01 X2.2578 Y17.2821
G01 X2.1851 Y17.3480
G01 X2.1546 Y17.3742
G01 X2.1229 Y17.3990
G01 X2.0440 Y17.4575
G01 X2.0111 Y17.4806
G01 X1.9771 Y17.5022
G01 X1.8930 Y17.5526
G01 X1.8579 Y17.5725
G01 X1.8220 Y17.5906
G01 X1.7333 Y17.6325
G01 X1.6965 Y17.6488
G01 X1.6778 Y17.6563
G01 X1.5665 Y17.6964
G01 X1.5283 Y17.7090
G01 X1.4895 Y17.7197
G01 X1.3943 Y17.7436
G01 X1.3551 Y17.7524
G01 X1.3154 Y17.7593
G01 X1.2183 Y17.7737
G01 X1.1784 Y17.7786
G01 X1.1383 Y17.7816
G01 X1.0402 Y17.7864
G01 X1.0000 Y17.7874
G01 X0.9598 Y17.7864
G01 X0.8617 Y17.7816
G01 X0.8216 Y17.7786
G01 X0.7817 Y17.7737
G01 X0.6846 Y17.7593
G01 X0.6449 Y17.7524
G01 X0.6057 Y17.7436
G01 X0.5105 Y17.7197
G01 X0.4717 Y17.7090
G01 X0.4335 Y17.6964
G01 X0.3222 Y17.6563
G01 X0.3035 Y17.6488
G01 X0.2667 Y17.6325
G01 X0.1780 Y17.5906
G01 X0.1421 Y17.5725
G01 X0.1070 Y17.5526
G01 X0.0229 Y17.5022
G01 X-0.0111 Y17.4806
G01 X-0.0440 Y17.4575
G01 X-0.1229 Y17.3990
G01 X-0.1546 Y17.3742
G01 X-0.1851 Y17.3480
G01 X-0.2578 Y17.2821
G01 X-0.2869 Y17.2543
G01 X-0.3147 Y17.2252
G01 X-0.3939 Y17.1374
G01 X-0.4069 Y17.1220
G01 X-0.4316 Y17.0902
G01 X-0.4901 Y17.0114
G01 X-0.5133 Y16.9785
G01 X-0.5348 Y16.9445
G01 X-0.5853 Y16.8603
G01 X-0.6051 Y16.8253
G01 X-0.6232 Y16.7894
G01 X-0.6652 Y16.7006
G01 X-0.6815 Y16.6639
G01 X-0.6959 Y16.6263
G01 X-0.7290 Y16.5339
G01 X-0.7416 Y16.4957
G01 X-0.7524 Y16.4569
G01 X-0.7809 Y16.3421
G01 X-0.7887 Y16.3026
G01 X-0.8063 Y16.1857
G01 X-0.8112 Y16.1458
G01 X-0.8142 Y16.1056
G01 X-0.8190 Y16.0076
G01 X-0.8198 Y15.9875
G01 X-0.8198 Y15.9472
G01 X-0.8142 Y15.8291
G01 X-0.8112 Y15.7890
G01 X-0.8090 Y15.7690
G01 X-0.7887 Y15.6321
G01 X-0.7850 Y15.6123
G01 X-0.7762 Y15.5730
G01 X-0.7472 Y15.4584
G01 X-0.7356 Y15.4199
G01 X-0.7290 Y15.4008
G01 X-0.6959 Y15.3084
G01 X-0.6815 Y15.2709
G01 X-0.6652 Y15.2341
G01 X-0.6232 Y15.1454
G01 X-0.6144 Y15.1273
G01 X-0.5954 Y15.0918
G01 X-0.5242 Y14.9731
G01 X-0.5133 Y14.9562
G01 X-0.4901 Y14.9233
G01 X-0.4203 Y14.8296
G01 X-0.4203 Y11.9895
G01 X-0.4901 Y11.8958
G01 X-0.5132 Y11.8629
G01 X-0.5348 Y11.8289
G01 X-0.5852 Y11.7447
G01 X-0.6051 Y11.7097
G01 X-0.6232 Y11.6737
G01 X-0.6651 Y11.5850
G01 X-0.6814 Y11.5482
G01 X-0.6959 Y11.5107
G01 X-0.7290 Y11.4183
G01 X-0.7416 Y11.3801
G01 X-0.7523 Y11.3413
G01 X-0.7808 Y11.2265
G01 X-0.7887 Y11.1870
G01 X-0.8063 Y11.0701
G01 X-0.8112 Y11.0301
G01 X-0.8142 Y10.9900
G01 X-0.8197 Y10.8719
G01 X-0.8197 Y10.8316
G01 X-0.8190 Y10.8115
G01 X-0.8129 Y10.6934
G01 X-0.8090 Y10.6533
G01 X-0.7919 Y10.5363
G01 X-0.7850 Y10.4967
G01 X-0.7762 Y10.4574
G01 X-0.7523 Y10.3622
G01 X-0.7416 Y10.3234
G01 X-0.7355 Y10.3042
G01 X-0.6959 Y10.1928
G01 X-0.6814 Y10.1553
G01 X-0.6651 Y10.1185
G01 X-0.6143 Y10.0117
G01 X-0.6051 Y9.9938
G01 X-0.5852 Y9.9588
G01 X-0.5242 Y9.8575
G01 X-0.5132 Y9.8406
G01 X-0.4901 Y9.8077
G01 X-0.4316 Y9.7289
G01 X-0.4068 Y9.6971
G01 X-0.3806 Y9.6667
G01 X-0.3147 Y9.5940
G01 X-0.2869 Y9.5648
G01 X-0.2725 Y9.5508
G01 X-0.1700 Y9.4578
G01 X-0.1546 Y9.4449
G01 X-0.1228 Y9.4201
G01 X-0.0440 Y9.3616
G01 X-0.0111 Y9.3385
G01 X0.0229 Y9.3169
G01 X0.1245 Y9.2563
G01 X0.1421 Y9.2466
G01 X0.1780 Y9.2285
G01 X0.2668 Y9.1866
G01 X0.3035 Y9.1703
G01 X0.3411 Y9.1558
G01 X0.4335 Y9.1227
G01 X0.4525 Y9.1162
G01 X0.4910 Y9.1045
G01 X0.6253 Y9.0709
G01 X0.6450 Y9.0667
G01 X0.6846 Y9.0598
G01 X0.7817 Y9.0454
G01 X0.8216 Y9.0405
G01 X0.8618 Y9.0375
G01 X0.9598 Y9.0327
G01 X1.0000 Y9.0317
G01 X1.0403 Y9.0327
G01 X1.1383 Y9.0375
G01 X1.1784 Y9.0405
G01 X1.2184 Y9.0454
G01 X1.3154 Y9.0598
G01 X1.3551 Y9.0667
G01 X1.3944 Y9.0755
G01 X1.4896 Y9.0994
G01 X1.5283 Y9.1101
G01 X1.5666 Y9.1227
G01 X1.6590 Y9.1558
G01 X1.6965 Y9.1703
G01 X1.7333 Y9.1866
G01 X1.8220 Y9.2285
G01 X1.8580 Y9.2466
G01 X1.8930 Y9.2665
G01 X1.9772 Y9.3169
G01 X2.0112 Y9.3385
G01 X2.0441 Y9.3616
G01 X2.1378 Y9.4315
G01 X4.8923 Y9.4315
G01 X7.0606 Y7.2631
G01 X2.1378 Y7.2631
G01 X2.0441 Y7.3329
G01 X2.0112 Y7.3561
G01 X1.9772 Y7.3777
G01 X1.8930 Y7.4281
G01 X1.8580 Y7.4479
G01 X1.8220 Y7.4660
G01 X1.7333 Y7.5080
G01 X1.6965 Y7.5243
G01 X1.6590 Y7.5388
G01 X1.5666 Y7.5719
G01 X1.5283 Y7.5845
G01 X1.4896 Y7.5952
G01 X1.3748 Y7.6237
G01 X1.3551 Y7.6279
G01 X1.3154 Y7.6348
G01 X1.2184 Y7.6492
G01 X1.1784 Y7.6541
G01 X1.1383 Y7.6570
G01 X1.0403 Y7.6619
G01 X1.0000 Y7.6628
G01 X0.9598 Y7.6619
G01 X0.8618 Y7.6570
G01 X0.8216 Y7.6541
G01 X0.7817 Y7.6492
G01 X0.6846 Y7.6348
G01 X0.6450 Y7.6279
G01 X0.6057 Y7.6191
G01 X0.4910 Y7.5901
G01 X0.4717 Y7.5845
G01 X0.4335 Y7.5719
G01 X0.3411 Y7.5388
G01 X0.3035 Y7.5243
G01 X0.2668 Y7.5080
G01 X0.1780 Y7.4660
G01 X0.1421 Y7.4479
G01 X0.1071 Y7.4281
G01 X0.0229 Y7.3777
G01 X-0.0111 Y7.3561
G01 X-0.0440 Y7.3329
G01 X-0.1228 Y7.2745
G01 X-0.1546 Y7.2497
G01 X-0.1850 Y7.2234
G01 X-0.2578 Y7.1575
G01 X-0.2869 Y7.1298
G01 X-0.3147 Y7.1006
G01 X-0.3806 Y7.0279
G01 X-0.4068 Y6.9974
G01 X-0.4316 Y6.9657
G01 X-0.4901 Y6.8869
G01 X-0.5132 Y6.8540
G01 X-0.5348 Y6.8200
G01 X-0.5852 Y6.7358
G01 X-0.6051 Y6.7008
G01 X-0.6232 Y6.6648
G01 X-0.6651 Y6.5761
G01 X-0.6814 Y6.5393
G01 X-0.6959 Y6.5018
G01 X-0.7290 Y6.4094
G01 X-0.7416 Y6.3712
G01 X-0.7523 Y6.3324
G01 X-0.7762 Y6.2372
G01 X-0.7850 Y6.1979
G01 X-0.7919 Y6.1583
G01 X-0.8063 Y6.0612
G01 X-0.8112 Y6.0212
G01 X-0.8142 Y5.9811
G01 X-0.8190 Y5.8831
G01 X-0.8200 Y5.8429
G01 X-0.8190 Y5.8026
G01 X-0.8142 Y5.7046
G01 X-0.8112 Y5.6645
G01 X-0.8063 Y5.6245
G01 X-0.7919 Y5.5274
G01 X-0.7850 Y5.4878
G01 X-0.7762 Y5.4485
G01 X-0.7523 Y5.3533
G01 X-0.7416 Y5.3145
G01 X-0.7290 Y5.2763
G01 X-0.6959 Y5.1839
G01 X-0.6814 Y5.1464
G01 X-0.6651 Y5.1096
G01 X-0.6232 Y5.0209
G01 X-0.6051 Y4.9849
G01 X-0.5852 Y4.9499
G01 X-0.5348 Y4.8657
G01 X-0.5132 Y4.8317
G01 X-0.4901 Y4.7988
G01 X-0.4316 Y4.7200
G01 X-0.4068 Y4.6883
G01 X-0.3806 Y4.6578
G01 X-0.3147 Y4.5851
G01 X-0.2869 Y4.5559
G01 X-0.2578 Y4.5282
G01 X-0.1850 Y4.4623
G01 X-0.1546 Y4.4360
G01 X-0.1228 Y4.4112
G01 X-0.0440 Y4.3528
G01 X-0.0111 Y4.3296
G01 X0.0229 Y4.3080
G01 X0.1071 Y4.2576
G01 X0.1421 Y4.2378
G01 X0.1780 Y4.2197
G01 X0.2668 Y4.1777
G01 X0.3035 Y4.1614
G01 X0.3411 Y4.1469
G01 X0.4335 Y4.1138
G01 X0.4717 Y4.1012
G01 X0.5105 Y4.0905
G01 X0.6057 Y4.0666
G01 X0.6450 Y4.0578
G01 X0.6846 Y4.0509
G01 X0.7817 Y4.0365
G01 X0.8216 Y4.0316
G01 X0.8618 Y4.0287
G01 X0.9598 Y4.0238
G01 X1.0000 Y4.0229
G01 X1.0403 Y4.0238
G01 X1.1383 Y4.0287
G01 X1.1784 Y4.0316
G01 X1.2184 Y4.0365
G01 X1.3154 Y4.0509
G01 X1.3551 Y4.0578
G01 X1.3944 Y4.0666
G01 X1.4896 Y4.0905
G01 X1.5283 Y4.1012
G01 X1.5666 Y4.1138
G01 X1.6590 Y4.1469
G01 X1.6965 Y4.1614
G01 X1.7333 Y4.1777
G01 X1.8220 Y4.2197
G01 X1.8580 Y4.2378
G01 X1.8930 Y4.2576
G01 X1.9772 Y4.3080
G01 X2.0112 Y4.3296
G01 X2.0441 Y4.3528
G01 X2.1378 Y4.4225
G00 Z2.0000
G00 X2.0718 Y4.6025
G01 F60.00
G01 Z-0.1866
G01 F120.00
G01 X6.6737 Y4.6025
G01 X11.5642 Y-0.2877
G01 X11.6194 Y-0.3379
G01 X11.6432 Y-0.3585
G01 X11.6680 Y-0.3778
G01 X11.7153 Y-0.4129
G01 X11.7410 Y-0.4310
G01 X11.7541 Y-0.4395
G01 X11.8180 Y-0.4781
G01 X11.8454 Y-0.4935
G01 X11.8734 Y-0.5077
G01 X11.9410 Y-0.5394
G01 X11.9554 Y-0.5456
G01 X11.9847 Y-0.5569
G01 X12.0402 Y-0.5767
G01 X12.0700 Y-0.5866
G01 X12.1003 Y-0.5950
G01 X12.1574 Y-0.6093
G01 X12.1881 Y-0.6162
G01 X12.2190 Y-0.6215
G01 X12.2773 Y-0.6302
G01 X12.3085 Y-0.6340
G01 X12.3398 Y-0.6363
G01 X12.3986 Y-0.6392
G01 X12.4300 Y-0.6400
G01 X26.2531 Y-0.6398
G01 X26.3277 Y-0.6363
G01 X26.3590 Y-0.6340
G01 X26.3902 Y-0.6302
G01 X26.4640 Y-0.6190
G01 X26.4948 Y-0.6129
G01 X26.5672 Y-0.5950
G01 X26.5824 Y-0.5910
G01 X26.6125 Y-0.5818
G01 X26.6828 Y-0.5569
G01 X26.7121 Y-0.5456
G01 X26.7408 Y-0.5329
G01 X26.8082 Y-0.5008
G01 X26.8359 Y-0.4860
G01 X26.9000 Y-0.4478
G01 X26.9265 Y-0.4310
G01 X26.9522 Y-0.4129
G01 X26.9995 Y-0.3778
G01 X27.0243 Y-0.3585
G01 X27.0481 Y-0.3379
G01 X27.0917 Y-0.2984
G01 X27.1145 Y-0.2767
G01 X31.5636 Y4.1724
G01 X31.5896 Y4.1738
G01 X31.6052 Y4.1752
G01 X31.6364 Y4.1790
G01 X31.7490 Y4.1959
G01 X31.7798 Y4.2021
G01 X31.7951 Y4.2057
G01 X31.8903 Y4.2295
G01 X31.9054 Y4.2335
G01 X31.9355 Y4.2427
G01 X32.0428 Y4.2808
G01 X32.0721 Y4.2921
G01 X32.0865 Y4.2983
G01 X32.1895 Y4.3468
G01 X32.2176 Y4.3609
G01 X32.2449 Y4.3764
G01 X32.3291 Y4.4269
G01 X32.3556 Y4.4437
G01 X32.3813 Y4.4618
G01 X32.4601 Y4.5202
G01 X32.4849 Y4.5396
G01 X32.5087 Y4.5601
G01 X32.5929 Y4.6367
G01 X32.6041 Y4.6476
G01 X32.6258 Y4.6704
G01 X32.6917 Y4.7431
G01 X32.7122 Y4.7669
G01 X32.7315 Y4.7917
G01 X32.7900 Y4.8705
G01 X32.8081 Y4.8962
G01 X32.8249 Y4.9227
G01 X32.8753 Y5.0069
G01 X32.8908 Y5.0342
G01 X32.9049 Y5.0623
G01 X32.9469 Y5.1510
G01 X32.9596 Y5.1797
G01 X32.9709 Y5.2090
G01 X33.0040 Y5.3014
G01 X33.0138 Y5.3312
G01 X33.0222 Y5.3615
G01 X33.0497 Y5.4720
G01 X33.0558 Y5.5028
G01 X33.0583 Y5.5183
G01 X33.0727 Y5.6154
G01 X33.0766 Y5.6466
G01 X33.0789 Y5.6779
G01 X33.0837 Y5.7759
G01 X33.0845 Y5.8073
G01 X33.0843 Y5.8230
G01 X33.0779 Y5.9524
G01 X33.0766 Y5.9680
G01 X33.0727 Y5.9992
G01 X33.0583 Y6.0963
G01 X33.0529 Y6.1272
G01 X33.0461 Y6.1579
G01 X33.0222 Y6.2531
G01 X33.0138 Y6.2834
G01 X33.0040 Y6.3132
G01 X32.9709 Y6.4056
G01 X32.9596 Y6.4349
G01 X32.9469 Y6.4636
G01 X32.9049 Y6.5523
G01 X32.8908 Y6.5804
G01 X32.8753 Y6.6077
G01 X32.8249 Y6.6919
G01 X32.8166 Y6.7053
G01 X32.7992 Y6.7314
G01 X32.7220 Y6.8354
G01 X32.7021 Y6.8597
G01 X32.6847 Y6.8791
G01 X32.6847 Y25.0555
G01 X32.7021 Y25.0749
G01 X32.7122 Y25.0869
G01 X32.7315 Y25.1117
G01 X32.7992 Y25.2032
G01 X32.8166 Y25.2293
G01 X32.8249 Y25.2427
G01 X32.8753 Y25.3269
G01 X32.8908 Y25.3542
G01 X32.8980 Y25.3682
G01 X32.9469 Y25.4710
G01 X32.9596 Y25.4997
G01 X32.9655 Y25.5143
G01 X33.0040 Y25.6214
G01 X33.0138 Y25.6512
G01 X33.0222 Y25.6815
G01 X33.0461 Y25.7767
G01 X33.0529 Y25.8074
G01 X33.0583 Y25.8383
G01 X33.0727 Y25.9354
G01 X33.0766 Y25.9666
G01 X33.0789 Y25.9979
G01 X33.0837 Y26.0959
G01 X33.0845 Y26.1273
G01 X33.0837 Y26.1587
G01 X33.0789 Y26.2567
G01 X33.0766 Y26.2880
G01 X33.0727 Y26.3192
G01 X33.0583 Y26.4163
G01 X33.0529 Y26.4472
G01 X33.0461 Y26.4779
G01 X33.0222 Y26.5731
G01 X33.0138 Y26.6034
G01 X33.0040 Y26.6332
G01 X32.9709 Y26.7256
G01 X32.9596 Y26.7549
G01 X32.9469 Y26.7836
G01 X32.9049 Y26.8723
G01 X32.8908 Y26.9004
G01 X32.8832 Y26.9142
G01 X32.8249 Y27.0119
G01 X32.8081 Y27.0384
G01 X32.7900 Y27.0641
G01 X32.7315 Y27.1429
G01 X32.7122 Y27.1677
G01 X32.6917 Y27.1915
G01 X32.6258 Y27.2642
G01 X32.6041 Y27.2870
G01 X32.5814 Y27.3086
G01 X32.5087 Y27.3745
G01 X32.4849 Y27.3950
G01 X32.4601 Y27.4144
G01 X32.3813 Y27.4728
G01 X32.3556 Y27.4909
G01 X32.3291 Y27.5077
G01 X32.2449 Y27.5582
G01 X32.2176 Y27.5737
G01 X32.2036 Y27.5809
G01 X32.1008 Y27.6297
G01 X32.0721 Y27.6425
G01 X32.0428 Y27.6538
G01 X31.9504 Y27.6868
G01 X31.9205 Y27.6967
G01 X31.8903 Y27.7051
G01 X31.7951 Y27.7289
G01 X31.7644 Y27.7358
G01 X31.7490 Y27.7387
G01 X31.6364 Y27.7556
G01 X31.6052 Y27.7594
G01 X31.5739 Y27.7617
G01 X31.4602 Y27.7671
G01 X31.4288 Y27.7671
G01 X31.4131 Y27.7665
G01 X31.3150 Y27.7617
G01 X31.2994 Y27.7608
G01 X31.2681 Y27.7577
G01 X31.1555 Y27.7412
G01 X31.1245 Y27.7358
G01 X31.0939 Y27.7289
G01 X30.9987 Y27.7051
G01 X30.9684 Y27.6967
G01 X30.9386 Y27.6868
G01 X30.8462 Y27.6538
G01 X30.8314 Y27.6483
G01 X30.8024 Y27.6363
G01 X30.6994 Y27.5878
G01 X30.6714 Y27.5737
G01 X30.6440 Y27.5582
G01 X30.5465 Y27.4995
G01 X30.5333 Y27.4909
G01 X30.5076 Y27.4728
G01 X30.4288 Y27.4144
G01 X30.4041 Y27.3950
G01 X30.3803 Y27.3745
G01 X30.3076 Y27.3086
G01 X30.2848 Y27.2870
G01 X30.2631 Y27.2642
G01 X30.1868 Y27.1797
G01 X30.1767 Y27.1677
G01 X30.1574 Y27.1429
G01 X30.0989 Y27.0641
G01 X30.0808 Y27.0384
G01 X30.0640 Y27.0119
G01 X30.0136 Y26.9277
G01 X29.9981 Y26.9004
G01 X29.9840 Y26.8723
G01 X29.9420 Y26.7836
G01 X29.9293 Y26.7549
G01 X29.9180 Y26.7256
G01 X29.8849 Y26.6332
G01 X29.8751 Y26.6034
G01 X29.8667 Y26.5731
G01 X29.8429 Y26.4779
G01 X29.8360 Y26.4472
G01 X29.8306 Y26.4163
G01 X29.8141 Y26.3037
G01 X29.8110 Y26.2724
G01 X29.8100 Y26.2567
G01 X29.8052 Y26.1587
G01 X29.8045 Y26.1273
G01 X29.8052 Y26.0959
G01 X29.8100 Y25.9979
G01 X29.8124 Y25.9666
G01 X29.8162 Y25.9354
G01 X29.8306 Y25.8383
G01 X29.8360 Y25.8074
G01 X29.8429 Y25.7767
G01 X29.8667 Y25.6815
G01 X29.8751 Y25.6512
G01 X29.8849 Y25.6214
G01 X29.9180 Y25.5290
G01 X29.9293 Y25.4997
G01 X29.9420 Y25.4710
G01 X29.9840 Y25.3823
G01 X29.9981 Y25.3542
G01 X30.0057 Y25.3404
G01 X30.0640 Y25.2427
G01 X30.0808 Y25.2162
G01 X30.0897 Y25.2032
G01 X30.1669 Y25.0992
G01 X30.1868 Y25.0749
G01 X30.2041 Y25.0555
G01 X30.2041 Y6.8791
G01 X30.1868 Y6.8597
G01 X30.1767 Y6.8477
G01 X30.1574 Y6.8229
G01 X30.0989 Y6.7441
G01 X30.0897 Y6.7314
G01 X30.0723 Y6.7053
G01 X30.0136 Y6.6077
G01 X29.9981 Y6.5804
G01 X29.9840 Y6.5523
G01 X29.9420 Y6.4636
G01 X29.9293 Y6.4349
G01 X29.9180 Y6.4056
G01 X29.8849 Y6.3132
G01 X29.8751 Y6.2834
G01 X29.8667 Y6.2531
G01 X29.8392 Y6.1426
G01 X29.8360 Y6.1272
G01 X29.8306 Y6.0963
G01 X29.8162 Y5.9992
G01 X29.8124 Y5.9680
G01 X29.8110 Y5.9524
G01 X29.8095 Y5.9265
G01 X25.7237 Y1.8406
G01 X24.5652 Y1.8406
G01 X24.5988 Y1.8713
G01 X24.6100 Y1.8823
G01 X26.9946 Y4.2668
G01 X27.0486 Y4.2863
G01 X27.0776 Y4.2983
G01 X27.1947 Y4.3537
G01 X27.2224 Y4.3685
G01 X27.2360 Y4.3764
G01 X27.3202 Y4.4269
G01 X27.3336 Y4.4351
G01 X27.3597 Y4.4526
G01 X27.4637 Y4.5297
G01 X27.4760 Y4.5396
G01 X27.4998 Y4.5601
G01 X27.5725 Y4.6260
G01 X27.5952 Y4.6476
G01 X27.6169 Y4.6704
G01 X27.6828 Y4.7431
G01 X27.7033 Y4.7669
G01 X27.7131 Y4.7792
G01 X27.7811 Y4.8705
G01 X27.7992 Y4.8962
G01 X27.8160 Y4.9227
G01 X27.8665 Y5.0069
G01 X27.8744 Y5.0204
G01 X27.8892 Y5.0482
G01 X27.9380 Y5.1510
G01 X27.9508 Y5.1797
G01 X27.9566 Y5.1943
G01 X27.9951 Y5.3014
G01 X28.0050 Y5.3312
G01 X28.0134 Y5.3615
G01 X28.0372 Y5.4567
G01 X28.0441 Y5.4874
G01 X28.0494 Y5.5183
G01 X28.0638 Y5.6154
G01 X28.0677 Y5.6466
G01 X28.0700 Y5.6779
G01 X28.0754 Y5.7916
G01 X28.0756 Y5.8073
G01 X28.0748 Y5.8387
G01 X28.0700 Y5.9367
G01 X28.0677 Y5.9680
G01 X28.0638 Y5.9992
G01 X28.0470 Y6.1118
G01 X28.0441 Y6.1272
G01 X28.0372 Y6.1579
G01 X28.0093 Y6.2683
G01 X28.0050 Y6.2834
G01 X27.9951 Y6.3132
G01 X27.9621 Y6.4056
G01 X27.9508 Y6.4349
G01 X27.9446 Y6.4493
G01 X27.8892 Y6.5664
G01 X27.8744 Y6.5942
G01 X27.8665 Y6.6077
G01 X27.8160 Y6.6919
G01 X27.8078 Y6.7053
G01 X27.7903 Y6.7314
G01 X27.7227 Y6.8229
G01 X27.7033 Y6.8477
G01 X27.6932 Y6.8597
G01 X27.6759 Y6.8791
G01 X27.6759 Y25.0555
G01 X27.6932 Y25.0749
G01 X27.7131 Y25.0992
G01 X27.7903 Y25.2032
G01 X27.7992 Y25.2162
G01 X27.8160 Y25.2427
G01 X27.8744 Y25.3404
G01 X27.8819 Y25.3542
G01 X27.8961 Y25.3823
G01 X27.9380 Y25.4710
G01 X27.9508 Y25.4997
G01 X27.9621 Y25.5290
G01 X28.0002 Y25.6363
G01 X28.0093 Y25.6663
G01 X28.0134 Y25.6815
G01 X28.0372 Y25.7767
G01 X28.0441 Y25.8074
G01 X28.0494 Y25.8383
G01 X28.0638 Y25.9354
G01 X28.0677 Y25.9666
G01 X28.0700 Y25.9979
G01 X28.0748 Y26.0959
G01 X28.0756 Y26.1273
G01 X28.0748 Y26.1587
G01 X28.0690 Y26.2724
G01 X28.0660 Y26.3037
G01 X28.0638 Y26.3192
G01 X28.0470 Y26.4318
G01 X28.0441 Y26.4472
G01 X28.0372 Y26.4779
G01 X28.0134 Y26.5731
G01 X28.0050 Y26.6034
G01 X28.0002 Y26.6183
G01 X27.9621 Y26.7256
G01 X27.9508 Y26.7549
G01 X27.9380 Y26.7836
G01 X27.8961 Y26.8723
G01 X27.8819 Y26.9004
G01 X27.8665 Y26.9277
G01 X27.8160 Y27.0119
G01 X27.7992 Y27.0384
G01 X27.7811 Y27.0641
G01 X27.7227 Y27.1429
G01 X27.7033 Y27.1677
G01 X27.6828 Y27.1915
G01 X27.6169 Y27.2642
G01 X27.5952 Y27.2870
G01 X27.5725 Y27.3086
G01 X27.4998 Y27.3745
G01 X27.4760 Y27.3950
G01 X27.4512 Y27.4144
G01 X27.3724 Y27.4728
G01 X27.3467 Y27.4909
G01 X27.3336 Y27.4995
G01 X27.2360 Y27.5582
G01 X27.2087 Y27.5737
G01 X27.1806 Y27.5878
G01 X27.0919 Y27.6297
G01 X27.0632 Y27.6425
G01 X27.0339 Y27.6538
G01 X26.9415 Y27.6868
G01 X26.9117 Y27.6967
G01 X26.8814 Y27.7051
G01 X26.7862 Y27.7289
G01 X26.7555 Y27.7358
G01 X26.7246 Y27.7412
G01 X26.6119 Y27.7577
G01 X26.5807 Y27.7608
G01 X26.5650 Y27.7617
G01 X26.4670 Y27.7665
G01 X26.4356 Y27.7673
G01 X26.4042 Y27.7665
G01 X26.3062 Y27.7617
G01 X26.2748 Y27.7594
G01 X26.2437 Y27.7556
G01 X26.1466 Y27.7412
G01 X26.1156 Y27.7358
G01 X26.0850 Y27.7289
G01 X25.9898 Y27.7051
G01 X25.9595 Y27.6967
G01 X25.9297 Y27.6868
G01 X25.8373 Y27.6538
G01 X25.8080 Y27.6425
G01 X25.7793 Y27.6297
G01 X25.6906 Y27.5878
G01 X25.6625 Y27.5737
G01 X25.6352 Y27.5582
G01 X25.5510 Y27.5077
G01 X25.5245 Y27.4909
G01 X25.4988 Y27.4728
G01 X25.4074 Y27.4049
G01 X25.3832 Y27.3849
G01 X25.3714 Y27.3745
G01 X25.2987 Y27.3086
G01 X25.2759 Y27.2870
G01 X25.2543 Y27.2642
G01 X25.1884 Y27.1915
G01 X25.1679 Y27.1677
G01 X25.1485 Y27.1429
G01 X25.0901 Y27.0641
G01 X25.0720 Y27.0384
G01 X25.0552 Y27.0119
G01 X24.9968 Y26.9142
G01 X24.9892 Y26.9004
G01 X24.9751 Y26.8723
G01 X24.9332 Y26.7836
G01 X24.9204 Y26.7549
G01 X24.9091 Y26.7256
G01 X24.8710 Y26.6183
G01 X24.8618 Y26.5883
G01 X24.8578 Y26.5731
G01 X24.8304 Y26.4626
G01 X24.8271 Y26.4472
G01 X24.8217 Y26.4163
G01 X24.8073 Y26.3192
G01 X24.8035 Y26.2880
G01 X24.8012 Y26.2567
G01 X24.7964 Y26.1587
G01 X24.7956 Y26.1273
G01 X24.7964 Y26.0959
G01 X24.8012 Y25.9979
G01 X24.8035 Y25.9666
G01 X24.8073 Y25.9354
G01 X24.8217 Y25.8383
G01 X24.8271 Y25.8074
G01 X24.8340 Y25.7767
G01 X24.8578 Y25.6815
G01 X24.8662 Y25.6512
G01 X24.8761 Y25.6214
G01 X24.9091 Y25.5290
G01 X24.9204 Y25.4997
G01 X24.9332 Y25.4710
G01 X24.9751 Y25.3823
G01 X24.9892 Y25.3542
G01 X24.9968 Y25.3404
G01 X25.0552 Y25.2427
G01 X25.0720 Y25.2162
G01 X25.0809 Y25.2032
G01 X25.1580 Y25.0992
G01 X25.1780 Y25.0749
G01 X25.1953 Y25.0555
G01 X25.1953 Y6.8791
G01 X25.1780 Y6.8597
G01 X25.1580 Y6.8354
G01 X25.0809 Y6.7314
G01 X25.0634 Y6.7053
G01 X25.0552 Y6.6919
G01 X24.9968 Y6.5942
G01 X24.9820 Y6.5664
G01 X24.9751 Y6.5523
G01 X24.9332 Y6.4636
G01 X24.9204 Y6.4349
G01 X24.9091 Y6.4056
G01 X24.8761 Y6.3132
G01 X24.8662 Y6.2834
G01 X24.8578 Y6.2531
G01 X24.8340 Y6.1579
G01 X24.8271 Y6.1272
G01 X24.8217 Y6.0963
G01 X24.8073 Y5.9992
G01 X24.8052 Y5.9837
G01 X24.8021 Y5.9524
G01 X24.7964 Y5.8387
G01 X24.7956 Y5.8073
G01 X24.7958 Y5.7916
G01 X24.8021 Y5.6622
G01 X24.8052 Y5.6309
G01 X24.8109 Y5.5912
G01 X23.2193 Y3.9996
G01 X14.0868 Y3.9996
G01 X6.3576 Y11.7288
G01 X6.3348 Y11.7504
G01 X6.2912 Y11.7900
G01 X6.2674 Y11.8105
G01 X6.2426 Y11.8299
G01 X6.1953 Y11.8649
G01 X6.1696 Y11.8830
G01 X6.1431 Y11.8998
G01 X6.0790 Y11.9380
G01 X6.0513 Y11.9528
G01 X6.0372 Y11.9597
G01 X5.9839 Y11.9849
G01 X5.9552 Y11.9976
G01 X5.9259 Y12.0090
G01 X5.8556 Y12.0339
G01 X5.8406 Y12.0387
G01 X5.8103 Y12.0470
G01 X5.7532 Y12.0613
G01 X5.7225 Y12.0682
G01 X5.6916 Y12.0736
G01 X5.6177 Y12.0844
G01 X5.5865 Y12.0874
G01 X5.5708 Y12.0884
G01 X5.5120 Y12.0913
G01 X5.4806 Y12.0921
G01 X2.2403 Y12.0921
G01 X2.2403 Y14.8956
G01 X2.2576 Y14.9149
G01 X2.2776 Y14.9392
G01 X2.3455 Y15.0306
G01 X2.3636 Y15.0562
G01 X2.3804 Y15.0828
G01 X2.4309 Y15.1669
G01 X2.4464 Y15.1943
G01 X2.4536 Y15.2082
G01 X2.5024 Y15.3111
G01 X2.5152 Y15.3398
G01 X2.5265 Y15.3691
G01 X2.5595 Y15.4615
G01 X2.5646 Y15.4763
G01 X2.5738 Y15.5064
G01 X2.6052 Y15.6321
G01 X2.6085 Y15.6474
G01 X2.6139 Y15.6784
G01 X2.6283 Y15.7754
G01 X2.6321 Y15.8066
G01 X2.6344 Y15.8379
G01 X2.6392 Y15.9360
G01 X2.6398 Y15.9517
G01 X2.6398 Y15.9831
G01 X2.6335 Y16.1125
G01 X2.6304 Y16.1437
G01 X2.6283 Y16.1593
G01 X2.6139 Y16.2564
G01 X2.6085 Y16.2873
G01 X2.6016 Y16.3180
G01 X2.5778 Y16.4132
G01 X2.5694 Y16.4434
G01 X2.5646 Y16.4584
G01 X2.5265 Y16.5657
G01 X2.5152 Y16.5950
G01 X2.5024 Y16.6237
G01 X2.4605 Y16.7124
G01 X2.4536 Y16.7265
G01 X2.4388 Y16.7542
G01 X2.3722 Y16.8653
G01 X2.3547 Y16.8915
G01 X2.3455 Y16.9042
G01 X2.2871 Y16.9830
G01 X2.2677 Y17.0078
G01 X2.2472 Y17.0316
G01 X2.1813 Y17.1043
G01 X2.1597 Y17.1270
G01 X2.1369 Y17.1487
G01 X2.0642 Y17.2146
G01 X2.0404 Y17.2351
G01 X2.0156 Y17.2544
G01 X1.9368 Y17.3129
G01 X1.9111 Y17.3310
G01 X1.8846 Y17.3478
G01 X1.8004 Y17.3982
G01 X1.7731 Y17.4137
G01 X1.7450 Y17.4278
G01 X1.6563 Y17.4698
G01 X1.6420 Y17.4763
G01 X1.6130 Y17.4884
G01 X1.5059 Y17.5269
G01 X1.4761 Y17.5368
G01 X1.4458 Y17.5451
G01 X1.3506 Y17.5690
G01 X1.3199 Y17.5759
G01 X1.2890 Y17.5812
G01 X1.1919 Y17.5956
G01 X1.1607 Y17.5995
G01 X1.1294 Y17.6018
G01 X1.0314 Y17.6066
G01 X1.0000 Y17.6074
G01 X0.9686 Y17.6066
G01 X0.8706 Y17.6018
G01 X0.8393 Y17.5995
G01 X0.8081 Y17.5956
G01 X0.7110 Y17.5812
G01 X0.6801 Y17.5759
G01 X0.6494 Y17.5690
G01 X0.5542 Y17.5451
G01 X0.5239 Y17.5368
G01 X0.4941 Y17.5269
G01 X0.3870 Y17.4884
G01 X0.3724 Y17.4825
G01 X0.3437 Y17.4698
G01 X0.2550 Y17.4278
G01 X0.2269 Y17.4137
G01 X0.1996 Y17.3982
G01 X0.1154 Y17.3478
G01 X0.0889 Y17.3310
G01 X0.0632 Y17.3129
G01 X-0.0156 Y17.2544
G01 X-0.0404 Y17.2351
G01 X-0.0642 Y17.2146
G01 X-0.1369 Y17.1487
G01 X-0.1597 Y17.1270
G01 X-0.1813 Y17.1043
G01 X-0.2576 Y17.0198
G01 X-0.2677 Y17.0078
G01 X-0.2871 Y16.9830
G01 X-0.3455 Y16.9042
G01 X-0.3636 Y16.8785
G01 X-0.3804 Y16.8520
G01 X-0.4309 Y16.7678
G01 X-0.4464 Y16.7405
G01 X-0.4605 Y16.7124
G01 X-0.5024 Y16.6237
G01 X-0.5152 Y16.5950
G01 X-0.5265 Y16.5657
G01 X-0.5595 Y16.4733
G01 X-0.5694 Y16.4434
G01 X-0.5778 Y16.4132
G01 X-0.6052 Y16.3027
G01 X-0.6114 Y16.2719
G01 X-0.6139 Y16.2564
G01 X-0.6283 Y16.1593
G01 X-0.6321 Y16.1281
G01 X-0.6344 Y16.0968
G01 X-0.6392 Y15.9988
G01 X-0.6400 Y15.9674
G01 X-0.6398 Y15.9517
G01 X-0.6344 Y15.8379
G01 X-0.6321 Y15.8066
G01 X-0.6304 Y15.7910
G01 X-0.6114 Y15.6629
G01 X-0.6085 Y15.6474
G01 X-0.6016 Y15.6168
G01 X-0.5738 Y15.5064
G01 X-0.5694 Y15.4913
G01 X-0.5595 Y15.4615
G01 X-0.5265 Y15.3691
G01 X-0.5152 Y15.3398
G01 X-0.5024 Y15.3111
G01 X-0.4605 Y15.2223
G01 X-0.4464 Y15.1943
G01 X-0.4309 Y15.1669
G01 X-0.3804 Y15.0828
G01 X-0.3722 Y15.0694
G01 X-0.3547 Y15.0433
G01 X-0.2776 Y14.9392
G01 X-0.2576 Y14.9149
G01 X-0.2403 Y14.8955
G01 X-0.2403 Y11.9236
G01 X-0.2576 Y11.9042
G01 X-0.2677 Y11.8921
G01 X-0.2870 Y11.8674
G01 X-0.3547 Y11.7758
G01 X-0.3636 Y11.7629
G01 X-0.3804 Y11.7363
G01 X-0.4308 Y11.6522
G01 X-0.4387 Y11.6386
G01 X-0.4536 Y11.6109
G01 X-0.5024 Y11.5081
G01 X-0.5089 Y11.4938
G01 X-0.5210 Y11.4648
G01 X-0.5595 Y11.3576
G01 X-0.5694 Y11.3278
G01 X-0.5777 Y11.2975
G01 X-0.6016 Y11.2023
G01 X-0.6085 Y11.1717
G01 X-0.6138 Y11.1407
G01 X-0.6282 Y11.0437
G01 X-0.6321 Y11.0125
G01 X-0.6344 Y10.9812
G01 X-0.6398 Y10.8674
G01 X-0.6398 Y10.8360
G01 X-0.6392 Y10.8203
G01 X-0.6344 Y10.7223
G01 X-0.6321 Y10.6910
G01 X-0.6282 Y10.6598
G01 X-0.6138 Y10.5627
G01 X-0.6085 Y10.5318
G01 X-0.6016 Y10.5011
G01 X-0.5777 Y10.4059
G01 X-0.5694 Y10.3757
G01 X-0.5595 Y10.3458
G01 X-0.5264 Y10.2534
G01 X-0.5151 Y10.2241
G01 X-0.5024 Y10.1954
G01 X-0.4604 Y10.1067
G01 X-0.4463 Y10.0786
G01 X-0.4308 Y10.0513
G01 X-0.3721 Y9.9538
G01 X-0.3547 Y9.9277
G01 X-0.3455 Y9.9149
G01 X-0.2870 Y9.8361
G01 X-0.2677 Y9.8113
G01 X-0.2472 Y9.7875
G01 X-0.1813 Y9.7148
G01 X-0.1596 Y9.6921
G01 X-0.1484 Y9.6811
G01 X-0.0524 Y9.5941
G01 X-0.0404 Y9.5840
G01 X-0.0156 Y9.5647
G01 X0.0632 Y9.5062
G01 X0.0889 Y9.4881
G01 X0.1154 Y9.4713
G01 X0.1996 Y9.4209
G01 X0.2269 Y9.4054
G01 X0.2550 Y9.3913
G01 X0.3437 Y9.3493
G01 X0.3724 Y9.3366
G01 X0.4017 Y9.3253
G01 X0.4941 Y9.2922
G01 X0.5240 Y9.2824
G01 X0.5542 Y9.2740
G01 X0.6494 Y9.2501
G01 X0.6801 Y9.2433
G01 X0.7110 Y9.2379
G01 X0.8081 Y9.2235
G01 X0.8393 Y9.2196
G01 X0.8549 Y9.2183
G01 X0.9686 Y9.2125
G01 X1.0000 Y9.2117
G01 X1.0314 Y9.2125
G01 X1.1295 Y9.2173
G01 X1.1608 Y9.2196
G01 X1.1920 Y9.2235
G01 X1.2890 Y9.2379
G01 X1.3200 Y9.2433
G01 X1.3506 Y9.2501
G01 X1.4458 Y9.2740
G01 X1.4610 Y9.2780
G01 X1.4911 Y9.2871
G01 X1.5983 Y9.3253
G01 X1.6276 Y9.3366
G01 X1.6563 Y9.3493
G01 X1.7451 Y9.3913
G01 X1.7592 Y9.3982
G01 X1.7869 Y9.4130
G01 X1.8846 Y9.4713
G01 X1.8980 Y9.4796
G01 X1.9241 Y9.4970
G01 X2.0282 Y9.5742
G01 X2.0525 Y9.5941
G01 X2.0719 Y9.6115
G01 X4.9668 Y9.6115
G01 X7.5490 Y7.0292
G01 X7.5173 Y7.0381
G01 X7.4448 Y7.0560
G01 X7.4140 Y7.0622
G01 X7.3985 Y7.0647
G01 X7.3402 Y7.0733
G01 X7.3091 Y7.0772
G01 X7.2777 Y7.0795
G01 X7.2189 Y7.0824
G01 X7.1875 Y7.0831
G01 X2.0719 Y7.0831
G01 X2.0525 Y7.1005
G01 X2.0404 Y7.1106
G01 X2.0157 Y7.1299
G01 X1.9241 Y7.1976
G01 X1.8980 Y7.2150
G01 X1.8846 Y7.2233
G01 X1.8005 Y7.2737
G01 X1.7869 Y7.2816
G01 X1.7592 Y7.2964
G01 X1.6563 Y7.3453
G01 X1.6421 Y7.3518
G01 X1.6130 Y7.3638
G01 X1.5059 Y7.4024
G01 X1.4761 Y7.4122
G01 X1.4458 Y7.4206
G01 X1.3506 Y7.4445
G01 X1.3200 Y7.4513
G01 X1.2890 Y7.4567
G01 X1.1920 Y7.4711
G01 X1.1608 Y7.4750
G01 X1.1295 Y7.4773
G01 X1.0314 Y7.4821
G01 X1.0000 Y7.4828
G01 X0.9686 Y7.4821
G01 X0.8706 Y7.4773
G01 X0.8393 Y7.4750
G01 X0.8081 Y7.4711
G01 X0.7110 Y7.4567
G01 X0.6801 Y7.4513
G01 X0.6494 Y7.4445
G01 X0.5542 Y7.4206
G01 X0.5240 Y7.4122
G01 X0.4941 Y7.4024
G01 X0.4017 Y7.3693
G01 X0.3724 Y7.3580
G01 X0.3580 Y7.3518
G01 X0.2550 Y7.3033
G01 X0.2269 Y7.2892
G01 X0.1996 Y7.2737
G01 X0.1154 Y7.2233
G01 X0.1021 Y7.2150
G01 X0.0759 Y7.1976
G01 X-0.0156 Y7.1299
G01 X-0.0404 Y7.1106
G01 X-0.0524 Y7.1005
G01 X-0.1369 Y7.0242
G01 X-0.1596 Y7.0025
G01 X-0.1813 Y6.9798
G01 X-0.2472 Y6.9070
G01 X-0.2677 Y6.8833
G01 X-0.2870 Y6.8585
G01 X-0.3455 Y6.7797
G01 X-0.3636 Y6.7540
G01 X-0.3804 Y6.7274
G01 X-0.4308 Y6.6433
G01 X-0.4463 Y6.6159
G01 X-0.4604 Y6.5879
G01 X-0.5024 Y6.4992
G01 X-0.5151 Y6.4705
G01 X-0.5264 Y6.4411
G01 X-0.5595 Y6.3487
G01 X-0.5694 Y6.3189
G01 X-0.5777 Y6.2886
G01 X-0.6016 Y6.1934
G01 X-0.6085 Y6.1628
G01 X-0.6138 Y6.1318
G01 X-0.6282 Y6.0348
G01 X-0.6321 Y6.0036
G01 X-0.6344 Y5.9723
G01 X-0.6392 Y5.8743
G01 X-0.6400 Y5.8429
G01 X-0.6392 Y5.8114
G01 X-0.6344 Y5.7134
G01 X-0.6321 Y5.6821
G01 X-0.6282 Y5.6509
G01 X-0.6138 Y5.5539
G01 X-0.6085 Y5.5229
G01 X-0.6016 Y5.4923
G01 X-0.5777 Y5.3971
G01 X-0.5694 Y5.3668
G01 X-0.5595 Y5.3370
G01 X-0.5264 Y5.2446
G01 X-0.5151 Y5.2152
G01 X-0.5024 Y5.1865
G01 X-0.4604 Y5.0978
G01 X-0.4463 Y5.0698
G01 X-0.4308 Y5.0424
G01 X-0.3804 Y4.9583
G01 X-0.3636 Y4.9317
G01 X-0.3455 Y4.9060
G01 X-0.2870 Y4.8272
G01 X-0.2677 Y4.8024
G01 X-0.2576 Y4.7904
G01 X-0.1813 Y4.7059
G01 X-0.1596 Y4.6832
G01 X-0.1369 Y4.6615
G01 X-0.0642 Y4.5956
G01 X-0.0404 Y4.5751
G01 X-0.0156 Y4.5558
G01 X0.0632 Y4.4973
G01 X0.0889 Y4.4792
G01 X0.1154 Y4.4624
G01 X0.1996 Y4.4120
G01 X0.2269 Y4.3965
G01 X0.2550 Y4.3824
G01 X0.3437 Y4.3404
G01 X0.3724 Y4.3277
G01 X0.4017 Y4.3164
G01 X0.4941 Y4.2833
G01 X0.5240 Y4.2735
G01 X0.5542 Y4.2651
G01 X0.6494 Y4.2412
G01 X0.6801 Y4.2344
G01 X0.7110 Y4.2290
G01 X0.8081 Y4.2146
G01 X0.8393 Y4.2107
G01 X0.8549 Y4.2094
G01 X0.9686 Y4.2036
G01 X1.0000 Y4.2029
G01 X1.0314 Y4.2036
G01 X1.1295 Y4.2084
G01 X1.1608 Y4.2107
G01 X1.1920 Y4.2146
G01 X1.2890 Y4.2290
G01 X1.3200 Y4.2344
G01 X1.3506 Y4.2412
G01 X1.4458 Y4.2651
G01 X1.4761 Y4.2735
G01 X1.4911 Y4.2782
G01 X1.5983 Y4.3164
G01 X1.6276 Y4.3277
G01 X1.6563 Y4.3404
G01 X1.7451 Y4.3824
G01 X1.7592 Y4.3893
G01 X1.7869 Y4.4041
G01 X1.8846 Y4.4624
G01 X1.8980 Y4.4707
G01 X1.9241 Y4.4881
G01 X2.0282 Y4.5653
G01 X2.0525 Y4.5852
G01 X2.0718 Y4.6025
G00 Z2.0000
G00 X2.0024 Y4.7825
G01 F60.00
G01 Z-0.1866
G01 F120.00
G01 X6.7483 Y4.7825
G01 X11.6884 Y-0.1573
G01 X11.7403 Y-0.2046
G01 X11.7574 Y-0.2193
G01 X11.7752 Y-0.2332
G01 X11.8225 Y-0.2683
G01 X11.8410 Y-0.2813
G01 X11.8504 Y-0.2875
G01 X11.9106 Y-0.3237
G01 X11.9302 Y-0.3348
G01 X11.9504 Y-0.3450
G01 X12.0139 Y-0.3748
G01 X12.0243 Y-0.3793
G01 X12.0453 Y-0.3874
G01 X12.1008 Y-0.4073
G01 X12.1222 Y-0.4143
G01 X12.1440 Y-0.4204
G01 X12.2011 Y-0.4347
G01 X12.2232 Y-0.4396
G01 X12.2454 Y-0.4435
G01 X12.3037 Y-0.4521
G01 X12.3261 Y-0.4549
G01 X12.3486 Y-0.4566
G01 X12.4075 Y-0.4594
G01 X12.4300 Y-0.4600
G01 X26.2374 Y-0.4600
G01 X26.2600 Y-0.4594
G01 X26.3301 Y-0.4559
G01 X26.3526 Y-0.4536
G01 X26.3638 Y-0.4521
G01 X26.4220 Y-0.4435
G01 X26.4443 Y-0.4396
G01 X26.4663 Y-0.4347
G01 X26.5235 Y-0.4204
G01 X26.5452 Y-0.4143
G01 X26.5667 Y-0.4073
G01 X26.6221 Y-0.3874
G01 X26.6432 Y-0.3793
G01 X26.6638 Y-0.3701
G01 X26.7171 Y-0.3450
G01 X26.7373 Y-0.3348
G01 X26.7569 Y-0.3237
G01 X26.8170 Y-0.2875
G01 X26.8358 Y-0.2749
G01 X26.8450 Y-0.2683
G01 X26.8923 Y-0.2332
G01 X26.9101 Y-0.2193
G01 X26.9272 Y-0.2046
G01 X26.9708 Y-0.1650
G01 X26.9872 Y-0.1494
G01 X31.4854 Y4.3488
G01 X31.5650 Y4.3527
G01 X31.5763 Y4.3534
G01 X31.5988 Y4.3556
G01 X31.7070 Y4.3715
G01 X31.7293 Y4.3754
G01 X31.7403 Y4.3777
G01 X31.8465 Y4.4041
G01 X31.8683 Y4.4102
G01 X31.8897 Y4.4172
G01 X31.9821 Y4.4503
G01 X32.0032 Y4.4584
G01 X32.0238 Y4.4676
G01 X32.1125 Y4.5095
G01 X32.1327 Y4.5197
G01 X32.1523 Y4.5308
G01 X32.2365 Y4.5813
G01 X32.2556 Y4.5934
G01 X32.2741 Y4.6064
G01 X32.3529 Y4.6648
G01 X32.3707 Y4.6787
G01 X32.3878 Y4.6935
G01 X32.4688 Y4.7670
G01 X32.4847 Y4.7830
G01 X32.4924 Y4.7913
G01 X32.5583 Y4.8640
G01 X32.5731 Y4.8811
G01 X32.5869 Y4.8989
G01 X32.6454 Y4.9777
G01 X32.6584 Y4.9962
G01 X32.6705 Y5.0152
G01 X32.7209 Y5.0994
G01 X32.7321 Y5.1191
G01 X32.7422 Y5.1392
G01 X32.7842 Y5.2279
G01 X32.7933 Y5.2486
G01 X32.8014 Y5.2696
G01 X32.8345 Y5.3620
G01 X32.8416 Y5.3835
G01 X32.8476 Y5.4052
G01 X32.8741 Y5.5114
G01 X32.8785 Y5.5336
G01 X32.8803 Y5.5447
G01 X32.8947 Y5.6418
G01 X32.8974 Y5.6642
G01 X32.8991 Y5.6867
G01 X32.9039 Y5.7847
G01 X32.9045 Y5.8073
G01 X32.9039 Y5.8299
G01 X32.8991 Y5.9279
G01 X32.8974 Y5.9504
G01 X32.8947 Y5.9728
G01 X32.8803 Y6.0699
G01 X32.8764 Y6.0921
G01 X32.8741 Y6.1032
G01 X32.8447 Y6.2203
G01 X32.8382 Y6.2419
G01 X32.8345 Y6.2526
G01 X32.8014 Y6.3450
G01 X32.7933 Y6.3660
G01 X32.7842 Y6.3867
G01 X32.7422 Y6.4754
G01 X32.7321 Y6.4955
G01 X32.7266 Y6.5054
G01 X32.6646 Y6.6090
G01 X32.6584 Y6.6184
G01 X32.6454 Y6.6369
G01 X32.5869 Y6.7157
G01 X32.5731 Y6.7335
G01 X32.5583 Y6.7506
G01 X32.5047 Y6.8097
G01 X32.5047 Y25.1249
G01 X32.5583 Y25.1840
G01 X32.5731 Y25.2011
G01 X32.5801 Y25.2099
G01 X32.6454 Y25.2977
G01 X32.6520 Y25.3069
G01 X32.6646 Y25.3256
G01 X32.7209 Y25.4194
G01 X32.7321 Y25.4391
G01 X32.7422 Y25.4592
G01 X32.7842 Y25.5479
G01 X32.7933 Y25.5686
G01 X32.7975 Y25.5791
G01 X32.8345 Y25.6820
G01 X32.8416 Y25.7035
G01 X32.8476 Y25.7252
G01 X32.8715 Y25.8204
G01 X32.8764 Y25.8425
G01 X32.8803 Y25.8647
G01 X32.8947 Y25.9618
G01 X32.8974 Y25.9842
G01 X32.8991 Y26.0067
G01 X32.9039 Y26.1047
G01 X32.9045 Y26.1273
G01 X32.9039 Y26.1499
G01 X32.8991 Y26.2479
G01 X32.8974 Y26.2704
G01 X32.8947 Y26.2928
G01 X32.8803 Y26.3899
G01 X32.8764 Y26.4121
G01 X32.8715 Y26.4342
G01 X32.8476 Y26.5294
G01 X32.8416 Y26.5511
G01 X32.8345 Y26.5726
G01 X32.8014 Y26.6650
G01 X32.7933 Y26.6860
G01 X32.7842 Y26.7067
G01 X32.7422 Y26.7954
G01 X32.7321 Y26.8155
G01 X32.7266 Y26.8254
G01 X32.6705 Y26.9194
G01 X32.6584 Y26.9384
G01 X32.6454 Y26.9569
G01 X32.5869 Y27.0357
G01 X32.5731 Y27.0535
G01 X32.5583 Y27.0706
G01 X32.4924 Y27.1433
G01 X32.4768 Y27.1597
G01 X32.4605 Y27.1752
G01 X32.3878 Y27.2411
G01 X32.3707 Y27.2559
G01 X32.3529 Y27.2698
G01 X32.2741 Y27.3282
G01 X32.2556 Y27.3412
G01 X32.2365 Y27.3533
G01 X32.1523 Y27.4038
G01 X32.1327 Y27.4149
G01 X32.1227 Y27.4201
G01 X32.0238 Y27.4670
G01 X32.0032 Y27.4762
G01 X31.9821 Y27.4843
G01 X31.8897 Y27.5174
G01 X31.8790 Y27.5210
G01 X31.8574 Y27.5276
G01 X31.7513 Y27.5543
G01 X31.7293 Y27.5592
G01 X31.7070 Y27.5631
G01 X31.6100 Y27.5775
G01 X31.5876 Y27.5803
G01 X31.5650 Y27.5819
G01 X31.4557 Y27.5872
G01 X31.4445 Y27.5873
G01 X31.4219 Y27.5867
G01 X31.3239 Y27.5819
G01 X31.3014 Y27.5803
G01 X31.2789 Y27.5775
G01 X31.1819 Y27.5631
G01 X31.1596 Y27.5592
G01 X31.1376 Y27.5543
G01 X31.0424 Y27.5305
G01 X31.0315 Y27.5276
G01 X31.0099 Y27.5210
G01 X30.9068 Y27.4843
G01 X30.8857 Y27.4762
G01 X30.8651 Y27.4670
G01 X30.7764 Y27.4251
G01 X30.7562 Y27.4149
G01 X30.7366 Y27.4038
G01 X30.6524 Y27.3533
G01 X30.6333 Y27.3412
G01 X30.6149 Y27.3282
G01 X30.5360 Y27.2698
G01 X30.5182 Y27.2559
G01 X30.5011 Y27.2411
G01 X30.4284 Y27.1752
G01 X30.4121 Y27.1597
G01 X30.3965 Y27.1433
G01 X30.3306 Y27.0706
G01 X30.3159 Y27.0535
G01 X30.3020 Y27.0357
G01 X30.2435 Y26.9569
G01 X30.2305 Y26.9384
G01 X30.2184 Y26.9194
G01 X30.1680 Y26.8352
G01 X30.1569 Y26.8155
G01 X30.1467 Y26.7954
G01 X30.1047 Y26.7067
G01 X30.0956 Y26.6860
G01 X30.0875 Y26.6650
G01 X30.0544 Y26.5726
G01 X30.0473 Y26.5511
G01 X30.0413 Y26.5294
G01 X30.0175 Y26.4342
G01 X30.0125 Y26.4121
G01 X30.0087 Y26.3899
G01 X29.9927 Y26.2816
G01 X29.9915 Y26.2704
G01 X29.9898 Y26.2479
G01 X29.9850 Y26.1499
G01 X29.9845 Y26.1273
G01 X29.9850 Y26.1047
G01 X29.9898 Y26.0067
G01 X29.9915 Y25.9842
G01 X29.9943 Y25.9618
G01 X30.0087 Y25.8647
G01 X30.0125 Y25.8425
G01 X30.0175 Y25.8204
G01 X30.0413 Y25.7252
G01 X30.0442 Y25.7143
G01 X30.0507 Y25.6927
G01 X30.0875 Y25.5896
G01 X30.0956 Y25.5686
G01 X30.1000 Y25.5582
G01 X30.1517 Y25.4491
G01 X30.1569 Y25.4391
G01 X30.1680 Y25.4194
G01 X30.2244 Y25.3256
G01 X30.2305 Y25.3162
G01 X30.2435 Y25.2977
G01 X30.3020 Y25.2189
G01 X30.3159 Y25.2011
G01 X30.3306 Y25.1840
G01 X30.3841 Y25.1249
G01 X30.3841 Y6.8097
G01 X30.3306 Y6.7506
G01 X30.3231 Y6.7422
G01 X30.3088 Y6.7247
G01 X30.2435 Y6.6369
G01 X30.2305 Y6.6184
G01 X30.2244 Y6.6090
G01 X30.1680 Y6.5152
G01 X30.1569 Y6.4955
G01 X30.1467 Y6.4754
G01 X30.1047 Y6.3867
G01 X30.0956 Y6.3660
G01 X30.0875 Y6.3450
G01 X30.0544 Y6.2526
G01 X30.0473 Y6.2311
G01 X30.0413 Y6.2094
G01 X30.0149 Y6.1032
G01 X30.0104 Y6.0810
G01 X30.0087 Y6.0699
G01 X29.9927 Y5.9616
G01 X29.9915 Y5.9504
G01 X29.9898 Y5.9279
G01 X29.9859 Y5.8483
G01 X25.7982 Y1.6606
G01 X12.8692 Y1.6606
G01 X7.9372 Y6.5926
G01 X7.9209 Y6.6081
G01 X7.8772 Y6.6477
G01 X7.8601 Y6.6625
G01 X7.8423 Y6.6763
G01 X7.7950 Y6.7114
G01 X7.7766 Y6.7244
G01 X7.7575 Y6.7365
G01 X7.7070 Y6.7668
G01 X7.6873 Y6.7779
G01 X7.6671 Y6.7881
G01 X7.6139 Y6.8133
G01 X7.5932 Y6.8224
G01 X7.5722 Y6.8305
G01 X7.5167 Y6.8504
G01 X7.4953 Y6.8575
G01 X7.4735 Y6.8635
G01 X7.4164 Y6.8778
G01 X7.3943 Y6.8828
G01 X7.3721 Y6.8866
G01 X7.3138 Y6.8953
G01 X7.2914 Y6.8980
G01 X7.2689 Y6.8997
G01 X7.1988 Y6.9030
G01 X2.0024 Y6.9031
G01 X1.9433 Y6.9567
G01 X1.9349 Y6.9642
G01 X1.9174 Y6.9785
G01 X1.8296 Y7.0438
G01 X1.8112 Y7.0568
G01 X1.8017 Y7.0630
G01 X1.7079 Y7.1193
G01 X1.6883 Y7.1305
G01 X1.6681 Y7.1406
G01 X1.5794 Y7.1826
G01 X1.5691 Y7.1873
G01 X1.5483 Y7.1959
G01 X1.4453 Y7.2329
G01 X1.4238 Y7.2400
G01 X1.4021 Y7.2460
G01 X1.3069 Y7.2698
G01 X1.2849 Y7.2748
G01 X1.2626 Y7.2787
G01 X1.1655 Y7.2931
G01 X1.1431 Y7.2958
G01 X1.1206 Y7.2975
G01 X1.0226 Y7.3023
G01 X1.0000 Y7.3028
G01 X0.9775 Y7.3023
G01 X0.8794 Y7.2975
G01 X0.8569 Y7.2958
G01 X0.8345 Y7.2931
G01 X0.7374 Y7.2787
G01 X0.7152 Y7.2748
G01 X0.6932 Y7.2698
G01 X0.5980 Y7.2460
G01 X0.5762 Y7.2400
G01 X0.5548 Y7.2329
G01 X0.4624 Y7.1998
G01 X0.4413 Y7.1917
G01 X0.4207 Y7.1826
G01 X0.3320 Y7.1406
G01 X0.3118 Y7.1305
G01 X0.2921 Y7.1193
G01 X0.2080 Y7.0689
G01 X0.1889 Y7.0568
G01 X0.1704 Y7.0438
G01 X0.0916 Y6.9853
G01 X0.0738 Y6.9714
G01 X0.0567 Y6.9567
G01 X-0.0243 Y6.8831
G01 X-0.0323 Y6.8752
G01 X-0.0479 Y6.8589
G01 X-0.1138 Y6.7862
G01 X-0.1286 Y6.7691
G01 X-0.1425 Y6.7513
G01 X-0.2009 Y6.6724
G01 X-0.2139 Y6.6540
G01 X-0.2260 Y6.6349
G01 X-0.2764 Y6.5507
G01 X-0.2876 Y6.5311
G01 X-0.2977 Y6.5109
G01 X-0.3397 Y6.4222
G01 X-0.3488 Y6.4016
G01 X-0.3570 Y6.3805
G01 X-0.3900 Y6.2881
G01 X-0.3971 Y6.2667
G01 X-0.4031 Y6.2449
G01 X-0.4270 Y6.1497
G01 X-0.4319 Y6.1277
G01 X-0.4358 Y6.1054
G01 X-0.4502 Y6.0084
G01 X-0.4529 Y5.9860
G01 X-0.4546 Y5.9634
G01 X-0.4594 Y5.8654
G01 X-0.4600 Y5.8429
G01 X-0.4594 Y5.8203
G01 X-0.4546 Y5.7223
G01 X-0.4529 Y5.6997
G01 X-0.4502 Y5.6773
G01 X-0.4358 Y5.5803
G01 X-0.4319 Y5.5580
G01 X-0.4270 Y5.5360
G01 X-0.4031 Y5.4408
G01 X-0.3971 Y5.4190
G01 X-0.3900 Y5.3976
G01 X-0.3570 Y5.3052
G01 X-0.3488 Y5.2841
G01 X-0.3397 Y5.2635
G01 X-0.2977 Y5.1748
G01 X-0.2876 Y5.1546
G01 X-0.2764 Y5.1350
G01 X-0.2260 Y5.0508
G01 X-0.2139 Y5.0317
G01 X-0.2009 Y5.0133
G01 X-0.1425 Y4.9344
G01 X-0.1286 Y4.9166
G01 X-0.1138 Y4.8995
G01 X-0.0402 Y4.8186
G01 X-0.0243 Y4.8026
G01 X-0.0160 Y4.7949
G01 X0.0567 Y4.7290
G01 X0.0738 Y4.7143
G01 X0.0916 Y4.7004
G01 X0.1704 Y4.6419
G01 X0.1889 Y4.6289
G01 X0.2080 Y4.6168
G01 X0.2921 Y4.5664
G01 X0.3118 Y4.5552
G01 X0.3320 Y4.5451
G01 X0.4207 Y4.5031
G01 X0.4413 Y4.4940
G01 X0.4624 Y4.4859
G01 X0.5548 Y4.4528
G01 X0.5762 Y4.4457
G01 X0.5980 Y4.4397
G01 X0.6932 Y4.4159
G01 X0.7152 Y4.4109
G01 X0.7374 Y4.4070
G01 X0.8345 Y4.3926
G01 X0.8569 Y4.3899
G01 X0.8794 Y4.3882
G01 X0.9887 Y4.3830
G01 X1.0000 Y4.3829
G01 X1.0226 Y4.3834
G01 X1.1206 Y4.3882
G01 X1.1431 Y4.3899
G01 X1.1655 Y4.3926
G01 X1.2626 Y4.4070
G01 X1.2849 Y4.4109
G01 X1.3069 Y4.4159
G01 X1.4021 Y4.4397
G01 X1.4238 Y4.4457
G01 X1.4453 Y4.4528
G01 X1.5483 Y4.4898
G01 X1.5691 Y4.4984
G01 X1.5794 Y4.5031
G01 X1.6681 Y4.5451
G01 X1.6883 Y4.5552
G01 X1.7079 Y4.5664
G01 X1.8017 Y4.6227
G01 X1.8112 Y4.6289
G01 X1.8296 Y4.6419
G01 X1.9174 Y4.7072
G01 X1.9262 Y4.7143
G01 X1.9433 Y4.7290
G01 X2.0024 Y4.7825
G00 Z2.0000
G00 X1.9280 Y4.9625
G01 F60.00
G01 Z-0.1866
G01 F120.00
G01 X6.8229 Y4.9625
G01 X11.8125 Y-0.0270
G01 X11.8612 Y-0.0712
G01 X11.8716 Y-0.0802
G01 X11.8824 Y-0.0886
G01 X11.9297 Y-0.1237
G01 X11.9410 Y-0.1316
G01 X11.9526 Y-0.1390
G01 X12.0031 Y-0.1693
G01 X12.0151 Y-0.1761
G01 X12.0273 Y-0.1822
G01 X12.0806 Y-0.2074
G01 X12.0932 Y-0.2130
G01 X12.1060 Y-0.2179
G01 X12.1614 Y-0.2378
G01 X12.1745 Y-0.2421
G01 X12.1877 Y-0.2458
G01 X12.2449 Y-0.2601
G01 X12.2583 Y-0.2631
G01 X12.2718 Y-0.2654
G01 X12.3301 Y-0.2741
G01 X12.3437 Y-0.2758
G01 X12.3575 Y-0.2768
G01 X12.4163 Y-0.2797
G01 X12.4300 Y-0.2800
G01 X26.2374 Y-0.2800
G01 X26.2512 Y-0.2797
G01 X26.3100 Y-0.2768
G01 X26.3237 Y-0.2758
G01 X26.3374 Y-0.2741
G01 X26.3956 Y-0.2654
G01 X26.4092 Y-0.2631
G01 X26.4226 Y-0.2601
G01 X26.4797 Y-0.2458
G01 X26.4930 Y-0.2421
G01 X26.5060 Y-0.2378
G01 X26.5615 Y-0.2179
G01 X26.5743 Y-0.2130
G01 X26.5869 Y-0.2074
G01 X26.6401 Y-0.1822
G01 X26.6524 Y-0.1761
G01 X26.6644 Y-0.1693
G01 X26.7149 Y-0.1390
G01 X26.7322 Y-0.1278
G01 X26.7851 Y-0.0886
G01 X26.7959 Y-0.0802
G01 X26.8063 Y-0.0712
G01 X26.8500 Y-0.0316
G01 X26.8599 Y-0.0222
G01 X31.4107 Y4.5286
G01 X31.4376 Y4.5274
G01 X31.4513 Y4.5274
G01 X31.5631 Y4.5329
G01 X31.5836 Y4.5351
G01 X31.6874 Y4.5506
G01 X31.7076 Y4.5549
G01 X31.8028 Y4.5788
G01 X31.8160 Y4.5824
G01 X31.8291 Y4.5867
G01 X31.9279 Y4.6222
G01 X31.9469 Y4.6303
G01 X32.0356 Y4.6723
G01 X32.0478 Y4.6784
G01 X32.0598 Y4.6852
G01 X32.1440 Y4.7357
G01 X32.1556 Y4.7430
G01 X32.1668 Y4.7509
G01 X32.2456 Y4.8094
G01 X32.2565 Y4.8178
G01 X32.2669 Y4.8268
G01 X32.3446 Y4.8974
G01 X32.3590 Y4.9122
G01 X32.4249 Y4.9849
G01 X32.4339 Y4.9953
G01 X32.4424 Y5.0061
G01 X32.5008 Y5.0849
G01 X32.5087 Y5.0962
G01 X32.5161 Y5.1078
G01 X32.5665 Y5.1920
G01 X32.5733 Y5.2039
G01 X32.5795 Y5.2162
G01 X32.6215 Y5.3049
G01 X32.6270 Y5.3175
G01 X32.6320 Y5.3303
G01 X32.6650 Y5.4227
G01 X32.6693 Y5.4357
G01 X32.6730 Y5.4490
G01 X32.6984 Y5.5509
G01 X32.7022 Y5.5711
G01 X32.7166 Y5.6682
G01 X32.7183 Y5.6818
G01 X32.7193 Y5.6955
G01 X32.7241 Y5.7936
G01 X32.7245 Y5.8073
G01 X32.7241 Y5.8210
G01 X32.7193 Y5.9191
G01 X32.7183 Y5.9328
G01 X32.7166 Y5.9464
G01 X32.7022 Y6.0435
G01 X32.6999 Y6.0570
G01 X32.6969 Y6.0704
G01 X32.6730 Y6.1656
G01 X32.6693 Y6.1789
G01 X32.6650 Y6.1919
G01 X32.6320 Y6.2843
G01 X32.6270 Y6.2971
G01 X32.6215 Y6.3097
G01 X32.5795 Y6.3984
G01 X32.5733 Y6.4107
G01 X32.5665 Y6.4226
G01 X32.5125 Y6.5127
G01 X32.5008 Y6.5297
G01 X32.4424 Y6.6085
G01 X32.4295 Y6.6246
G01 X32.3544 Y6.7075
G01 X32.3446 Y6.7172
G01 X32.3247 Y6.7353
G01 X32.3247 Y25.1993
G01 X32.3446 Y25.2174
G01 X32.3544 Y25.2271
G01 X32.4295 Y25.3100
G01 X32.4424 Y25.3261
G01 X32.5049 Y25.4105
G01 X32.5161 Y25.4278
G01 X32.5665 Y25.5120
G01 X32.5733 Y25.5239
G01 X32.5795 Y25.5362
G01 X32.6243 Y25.6311
G01 X32.6320 Y25.6503
G01 X32.6650 Y25.7427
G01 X32.6693 Y25.7557
G01 X32.6730 Y25.7690
G01 X32.6969 Y25.8642
G01 X32.6999 Y25.8776
G01 X32.7022 Y25.8911
G01 X32.7166 Y25.9882
G01 X32.7183 Y26.0018
G01 X32.7193 Y26.0155
G01 X32.7241 Y26.1136
G01 X32.7245 Y26.1273
G01 X32.7241 Y26.1410
G01 X32.7193 Y26.2391
G01 X32.7183 Y26.2528
G01 X32.7166 Y26.2664
G01 X32.7022 Y26.3635
G01 X32.6999 Y26.3770
G01 X32.6969 Y26.3904
G01 X32.6730 Y26.4856
G01 X32.6693 Y26.4989
G01 X32.6650 Y26.5119
G01 X32.6320 Y26.6043
G01 X32.6270 Y26.6171
G01 X32.6215 Y26.6297
G01 X32.5795 Y26.7184
G01 X32.5733 Y26.7307
G01 X32.5665 Y26.7426
G01 X32.5161 Y26.8268
G01 X32.5049 Y26.8441
G01 X32.4424 Y26.9285
G01 X32.4339 Y26.9393
G01 X32.4249 Y26.9497
G01 X32.3590 Y27.0224
G01 X32.3496 Y27.0324
G01 X32.3396 Y27.0419
G01 X32.2669 Y27.1078
G01 X32.2565 Y27.1168
G01 X32.2456 Y27.1252
G01 X32.1668 Y27.1837
G01 X32.1556 Y27.1916
G01 X32.1440 Y27.1989
G01 X32.0598 Y27.2494
G01 X32.0478 Y27.2562
G01 X32.0356 Y27.2623
G01 X31.9469 Y27.3043
G01 X31.9343 Y27.3099
G01 X31.9215 Y27.3148
G01 X31.8291 Y27.3479
G01 X31.8160 Y27.3522
G01 X31.8028 Y27.3558
G01 X31.7076 Y27.3797
G01 X31.6942 Y27.3827
G01 X31.6806 Y27.3851
G01 X31.5836 Y27.3995
G01 X31.5699 Y27.4011
G01 X31.5562 Y27.4021
G01 X31.4582 Y27.4070
G01 X31.4445 Y27.4073
G01 X31.4307 Y27.4070
G01 X31.3327 Y27.4021
G01 X31.3190 Y27.4011
G01 X31.3054 Y27.3995
G01 X31.2083 Y27.3851
G01 X31.1947 Y27.3827
G01 X31.1813 Y27.3797
G01 X31.0861 Y27.3558
G01 X31.0729 Y27.3522
G01 X31.0598 Y27.3479
G01 X30.9674 Y27.3148
G01 X30.9546 Y27.3099
G01 X30.9421 Y27.3043
G01 X30.8533 Y27.2623
G01 X30.8411 Y27.2562
G01 X30.8291 Y27.2494
G01 X30.7449 Y27.1989
G01 X30.7333 Y27.1916
G01 X30.7221 Y27.1837
G01 X30.6433 Y27.1252
G01 X30.6324 Y27.1168
G01 X30.6220 Y27.1078
G01 X30.5493 Y27.0419
G01 X30.5394 Y27.0324
G01 X30.5299 Y27.0224
G01 X30.4640 Y26.9497
G01 X30.4550 Y26.9393
G01 X30.4466 Y26.9285
G01 X30.3881 Y26.8497
G01 X30.3802 Y26.8384
G01 X30.3728 Y26.8268
G01 X30.3224 Y26.7426
G01 X30.3156 Y26.7307
G01 X30.3094 Y26.7184
G01 X30.2675 Y26.6297
G01 X30.2619 Y26.6171
G01 X30.2569 Y26.6043
G01 X30.2239 Y26.5119
G01 X30.2196 Y26.4989
G01 X30.2159 Y26.4856
G01 X30.1921 Y26.3904
G01 X30.1891 Y26.3770
G01 X30.1867 Y26.3635
G01 X30.1723 Y26.2664
G01 X30.1706 Y26.2528
G01 X30.1696 Y26.2391
G01 X30.1648 Y26.1410
G01 X30.1645 Y26.1273
G01 X30.1648 Y26.1136
G01 X30.1696 Y26.0155
G01 X30.1706 Y26.0018
G01 X30.1723 Y25.9882
G01 X30.1867 Y25.8911
G01 X30.1891 Y25.8776
G01 X30.1921 Y25.8642
G01 X30.2159 Y25.7690
G01 X30.2196 Y25.7557
G01 X30.2239 Y25.7427
G01 X30.2593 Y25.6438
G01 X30.2675 Y25.6249
G01 X30.3094 Y25.5362
G01 X30.3156 Y25.5239
G01 X30.3224 Y25.5120
G01 X30.3728 Y25.4278
G01 X30.3802 Y25.4162
G01 X30.3881 Y25.4049
G01 X30.4466 Y25.3261
G01 X30.4594 Y25.3100
G01 X30.5346 Y25.2271
G01 X30.5443 Y25.2174
G01 X30.5641 Y25.1993
G01 X30.5641 Y6.7353
G01 X30.5443 Y6.7172
G01 X30.5346 Y6.7075
G01 X30.4594 Y6.6246
G01 X30.4466 Y6.6085
G01 X30.3841 Y6.5241
G01 X30.3728 Y6.5068
G01 X30.3224 Y6.4226
G01 X30.3156 Y6.4107
G01 X30.3094 Y6.3984
G01 X30.2675 Y6.3097
G01 X30.2619 Y6.2971
G01 X30.2569 Y6.2843
G01 X30.2239 Y6.1919
G01 X30.2196 Y6.1789
G01 X30.2159 Y6.1656
G01 X30.1921 Y6.0704
G01 X30.1878 Y6.0503
G01 X30.1723 Y5.9464
G01 X30.1700 Y5.9259
G01 X30.1645 Y5.8142
G01 X30.1645 Y5.8004
G01 X30.1658 Y5.7736
G01 X25.8728 Y1.4806
G01 X12.7947 Y1.4806
G01 X7.8100 Y6.4653
G01 X7.8000 Y6.4748
G01 X7.7564 Y6.5143
G01 X7.7459 Y6.5233
G01 X7.7351 Y6.5318
G01 X7.6878 Y6.5669
G01 X7.6766 Y6.5748
G01 X7.6649 Y6.5821
G01 X7.6144 Y6.6124
G01 X7.6025 Y6.6192
G01 X7.5902 Y6.6254
G01 X7.5369 Y6.6506
G01 X7.5244 Y6.6561
G01 X7.5115 Y6.6611
G01 X7.4561 Y6.6809
G01 X7.4430 Y6.6852
G01 X7.4298 Y6.6889
G01 X7.3726 Y6.7032
G01 X7.3592 Y6.7062
G01 X7.3457 Y6.7086
G01 X7.2874 Y6.7172
G01 X7.2738 Y6.7189
G01 X7.2601 Y6.7199
G01 X7.2012 Y6.7228
G01 X7.1875 Y6.7231
G01 X1.9281 Y6.7231
G01 X1.9099 Y6.7430
G01 X1.9002 Y6.7527
G01 X1.8173 Y6.8279
G01 X1.8012 Y6.8408
G01 X1.7168 Y6.9032
G01 X1.6995 Y6.9145
G01 X1.6154 Y6.9649
G01 X1.6034 Y6.9717
G01 X1.5911 Y6.9779
G01 X1.4962 Y7.0227
G01 X1.4770 Y7.0304
G01 X1.3846 Y7.0634
G01 X1.3716 Y7.0677
G01 X1.3583 Y7.0714
G01 X1.2632 Y7.0952
G01 X1.2497 Y7.0983
G01 X1.2362 Y7.1006
G01 X1.1391 Y7.1150
G01 X1.1255 Y7.1167
G01 X1.1118 Y7.1177
G01 X1.0138 Y7.1225
G01 X1.0000 Y7.1228
G01 X0.9863 Y7.1225
G01 X0.8883 Y7.1177
G01 X0.8746 Y7.1167
G01 X0.8609 Y7.1150
G01 X0.7639 Y7.1006
G01 X0.7503 Y7.0983
G01 X0.7369 Y7.0952
G01 X0.6417 Y7.0714
G01 X0.6285 Y7.0677
G01 X0.6154 Y7.0634
G01 X0.5230 Y7.0304
G01 X0.5102 Y7.0254
G01 X0.4976 Y7.0198
G01 X0.4089 Y6.9779
G01 X0.3966 Y6.9717
G01 X0.3847 Y6.9649
G01 X0.3005 Y6.9145
G01 X0.2889 Y6.9071
G01 X0.2777 Y6.8992
G01 X0.1988 Y6.8408
G01 X0.1880 Y6.8323
G01 X0.1776 Y6.8233
G01 X0.1049 Y6.7574
G01 X0.0901 Y6.7430
G01 X0.0196 Y6.6653
G01 X0.0106 Y6.6549
G01 X0.0021 Y6.6440
G01 X-0.0563 Y6.5652
G01 X-0.0643 Y6.5540
G01 X-0.0716 Y6.5424
G01 X-0.1221 Y6.4582
G01 X-0.1288 Y6.4462
G01 X-0.1350 Y6.4340
G01 X-0.1770 Y6.3452
G01 X-0.1825 Y6.3327
G01 X-0.1875 Y6.3199
G01 X-0.2205 Y6.2275
G01 X-0.2249 Y6.2144
G01 X-0.2285 Y6.2012
G01 X-0.2524 Y6.1060
G01 X-0.2554 Y6.0926
G01 X-0.2577 Y6.0790
G01 X-0.2721 Y5.9820
G01 X-0.2738 Y5.9683
G01 X-0.2748 Y5.9546
G01 X-0.2796 Y5.8566
G01 X-0.2800 Y5.8429
G01 X-0.2796 Y5.8291
G01 X-0.2748 Y5.7311
G01 X-0.2738 Y5.7174
G01 X-0.2721 Y5.7037
G01 X-0.2577 Y5.6067
G01 X-0.2554 Y5.5931
G01 X-0.2524 Y5.5797
G01 X-0.2285 Y5.4845
G01 X-0.2249 Y5.4713
G01 X-0.2205 Y5.4582
G01 X-0.1875 Y5.3658
G01 X-0.1825 Y5.3530
G01 X-0.1770 Y5.3405
G01 X-0.1350 Y5.2517
G01 X-0.1288 Y5.2395
G01 X-0.1221 Y5.2275
G01 X-0.0716 Y5.1433
G01 X-0.0643 Y5.1317
G01 X-0.0563 Y5.1205
G01 X0.0021 Y5.0417
G01 X0.0106 Y5.0308
G01 X0.0196 Y5.0204
G01 X0.0855 Y4.9477
G01 X0.0999 Y4.9330
G01 X0.1776 Y4.8624
G01 X0.1880 Y4.8534
G01 X0.1988 Y4.8449
G01 X0.2777 Y4.7865
G01 X0.2889 Y4.7786
G01 X0.3005 Y4.7712
G01 X0.3847 Y4.7208
G01 X0.3966 Y4.7140
G01 X0.4089 Y4.7078
G01 X0.4976 Y4.6659
G01 X0.5102 Y4.6603
G01 X0.5230 Y4.6553
G01 X0.6154 Y4.6223
G01 X0.6285 Y4.6180
G01 X0.6417 Y4.6143
G01 X0.7369 Y4.5905
G01 X0.7503 Y4.5874
G01 X0.7639 Y4.5851
G01 X0.8609 Y4.5707
G01 X0.8746 Y4.5690
G01 X0.8883 Y4.5680
G01 X0.9863 Y4.5632
G01 X1.0069 Y4.5629
G01 X1.1118 Y4.5680
G01 X1.1255 Y4.5690
G01 X1.1391 Y4.5707
G01 X1.2362 Y4.5851
G01 X1.2497 Y4.5874
G01 X1.2632 Y4.5905
G01 X1.3583 Y4.6143
G01 X1.3716 Y4.6180
G01 X1.3846 Y4.6223
G01 X1.4770 Y4.6553
G01 X1.4962 Y4.6630
G01 X1.5911 Y4.7078
G01 X1.6034 Y4.7140
G01 X1.6154 Y4.7208
G01 X1.6995 Y4.7712
G01 X1.7168 Y4.7825
G01 X1.8012 Y4.8449
G01 X1.8173 Y4.8578
G01 X1.9002 Y4.9330
G01 X1.9099 Y4.9427
G01 X1.9280 Y4.9625
G00 Z2.0000
G00 X1.8482 Y5.1425
G01 F60.00
G01 Z-0.1866
G01 F120.00
G01 X6.8974 Y5.1425
G01 X11.9366 Y0.1034
G01 X11.9858 Y0.0590
G01 X12.0370 Y0.0208
G01 X12.0451 Y0.0154
G01 X12.0999 Y-0.0173
G01 X12.1575 Y-0.0447
G01 X12.1666 Y-0.0485
G01 X12.2267 Y-0.0698
G01 X12.2934 Y-0.0865
G01 X12.3614 Y-0.0966
G01 X12.4300 Y-0.1000
G01 X26.2374 Y-0.1000
G01 X26.3012 Y-0.0970
G01 X26.3110 Y-0.0960
G01 X26.3741 Y-0.0865
G01 X26.4407 Y-0.0698
G01 X26.5054 Y-0.0467
G01 X26.5632 Y-0.0195
G01 X26.5718 Y-0.0149
G01 X26.6285 Y0.0194
G01 X26.6817 Y0.0590
G01 X26.7326 Y0.1051
G01 X31.3399 Y4.7123
G01 X31.4445 Y4.7073
G01 X31.5474 Y4.7122
G01 X31.5572 Y4.7132
G01 X31.6542 Y4.7276
G01 X31.6638 Y4.7295
G01 X31.7638 Y4.7547
G01 X31.8608 Y4.7893
G01 X31.8699 Y4.7930
G01 X31.9630 Y4.8372
G01 X32.0556 Y4.8927
G01 X32.1423 Y4.9570
G01 X32.2205 Y5.0278
G01 X32.2257 Y5.0330
G01 X32.2916 Y5.1058
G01 X32.2978 Y5.1133
G01 X32.3591 Y5.1962
G01 X32.4146 Y5.2888
G01 X32.4587 Y5.3819
G01 X32.4625 Y5.3909
G01 X32.4971 Y5.4880
G01 X32.5228 Y5.5903
G01 X32.5242 Y5.5975
G01 X32.5386 Y5.6946
G01 X32.5395 Y5.7044
G01 X32.5445 Y5.8073
G01 X32.5395 Y5.9102
G01 X32.5386 Y5.9200
G01 X32.5233 Y6.0219
G01 X32.4984 Y6.1219
G01 X32.4956 Y6.1313
G01 X32.4607 Y6.2283
G01 X32.4168 Y6.3215
G01 X32.4122 Y6.3301
G01 X32.3591 Y6.4184
G01 X32.2978 Y6.5013
G01 X32.2916 Y6.5088
G01 X32.2223 Y6.5851
G01 X32.1447 Y6.6555
G01 X32.1447 Y25.2791
G01 X32.2223 Y25.3495
G01 X32.2948 Y25.4295
G01 X32.3591 Y25.5162
G01 X32.4146 Y25.6088
G01 X32.4607 Y25.7063
G01 X32.4971 Y25.8080
G01 X32.5233 Y25.9127
G01 X32.5386 Y26.0146
G01 X32.5395 Y26.0244
G01 X32.5445 Y26.1273
G01 X32.5395 Y26.2302
G01 X32.5386 Y26.2400
G01 X32.5242 Y26.3371
G01 X32.5222 Y26.3467
G01 X32.4971 Y26.4466
G01 X32.4607 Y26.5483
G01 X32.4146 Y26.6458
G01 X32.3617 Y26.7343
G01 X32.3577 Y26.7405
G01 X32.2948 Y26.8251
G01 X32.2257 Y26.9016
G01 X32.2187 Y26.9085
G01 X32.1423 Y26.9776
G01 X32.0556 Y27.0419
G01 X31.9673 Y27.0950
G01 X31.9586 Y27.0996
G01 X31.8699 Y27.1416
G01 X31.8608 Y27.1453
G01 X31.7638 Y27.1799
G01 X31.6638 Y27.2051
G01 X31.6542 Y27.2070
G01 X31.5572 Y27.2214
G01 X31.5474 Y27.2224
G01 X31.4445 Y27.2273
G01 X31.3366 Y27.2220
G01 X31.2299 Y27.2062
G01 X31.1299 Y27.1812
G01 X31.1205 Y27.1784
G01 X31.0281 Y27.1453
G01 X31.0190 Y27.1416
G01 X30.9259 Y27.0974
G01 X30.8333 Y27.0419
G01 X30.7466 Y26.9776
G01 X30.6702 Y26.9085
G01 X30.6633 Y26.9016
G01 X30.5941 Y26.8251
G01 X30.5298 Y26.7384
G01 X30.4768 Y26.6501
G01 X30.4721 Y26.6415
G01 X30.4282 Y26.5483
G01 X30.3918 Y26.4466
G01 X30.3667 Y26.3467
G01 X30.3648 Y26.3371
G01 X30.3504 Y26.2400
G01 X30.3495 Y26.2327
G01 X30.3446 Y26.1322
G01 X30.3446 Y26.1224
G01 X30.3498 Y26.0195
G01 X30.3648 Y25.9175
G01 X30.3667 Y25.9079
G01 X30.3918 Y25.8080
G01 X30.4282 Y25.7063
G01 X30.4743 Y25.6088
G01 X30.5272 Y25.5203
G01 X30.5327 Y25.5122
G01 X30.5941 Y25.4295
G01 X30.6633 Y25.3530
G01 X30.6702 Y25.3461
G01 X30.7441 Y25.2791
G01 X30.7441 Y6.6555
G01 X30.6702 Y6.5885
G01 X30.6633 Y6.5816
G01 X30.5941 Y6.5051
G01 X30.5327 Y6.4224
G01 X30.5272 Y6.4143
G01 X30.4743 Y6.3258
G01 X30.4282 Y6.2283
G01 X30.3918 Y6.1266
G01 X30.3667 Y6.0267
G01 X30.3648 Y6.0171
G01 X30.3498 Y5.9151
G01 X30.3446 Y5.8122
G01 X30.3446 Y5.8024
G01 X30.3495 Y5.7027
G01 X25.9474 Y1.3006
G01 X12.7201 Y1.3006
G01 X7.6809 Y6.3397
G01 X7.6318 Y6.3842
G01 X7.5806 Y6.4223
G01 X7.5724 Y6.4277
G01 X7.5176 Y6.4604
G01 X7.4555 Y6.4898
G01 X7.3954 Y6.5114
G01 X7.3860 Y6.5143
G01 X7.3289 Y6.5286
G01 X7.3193 Y6.5305
G01 X7.2561 Y6.5398
G01 X7.1875 Y6.5431
G01 X1.8483 Y6.5431
G01 X1.7778 Y6.6207
G01 X1.7016 Y6.6900
G01 X1.6940 Y6.6962
G01 X1.6112 Y6.7575
G01 X1.5228 Y6.8105
G01 X1.5142 Y6.8152
G01 X1.4255 Y6.8571
G01 X1.4164 Y6.8609
G01 X1.3193 Y6.8955
G01 X1.2146 Y6.9217
G01 X1.1078 Y6.9376
G01 X1.0000 Y6.9428
G01 X0.8922 Y6.9376
G01 X0.7903 Y6.9226
G01 X0.7806 Y6.9206
G01 X0.6854 Y6.8968
G01 X0.6761 Y6.8939
G01 X0.5791 Y6.8591
G01 X0.4859 Y6.8152
G01 X0.4772 Y6.8105
G01 X0.3889 Y6.7575
G01 X0.3022 Y6.6932
G01 X0.2222 Y6.6207
G01 X0.1497 Y6.5407
G01 X0.0854 Y6.4540
G01 X0.0299 Y6.3614
G01 X-0.0162 Y6.2638
G01 X-0.0526 Y6.1622
G01 X-0.0788 Y6.0574
G01 X-0.0947 Y5.9507
G01 X-0.1000 Y5.8429
G01 X-0.0947 Y5.7350
G01 X-0.0788 Y5.6283
G01 X-0.0526 Y5.5235
G01 X-0.0162 Y5.4219
G01 X0.0299 Y5.3243
G01 X0.0854 Y5.2317
G01 X0.1497 Y5.1450
G01 X0.2222 Y5.0650
G01 X0.3022 Y4.9925
G01 X0.3889 Y4.9282
G01 X0.4815 Y4.8727
G01 X0.5791 Y4.8266
G01 X0.6807 Y4.7902
G01 X0.7854 Y4.7640
G01 X0.8922 Y4.7481
G01 X1.0000 Y4.7429
G01 X1.1078 Y4.7481
G01 X1.2146 Y4.7640
G01 X1.3193 Y4.7902
G01 X1.4210 Y4.8266
G01 X1.5186 Y4.8727
G01 X1.6112 Y4.9282
G01 X1.6979 Y4.9925
G01 X1.7778 Y5.0650
G01 X1.8482 Y5.1425
G00 Z2.0000
G00 X0.2997 Y11.6999
G01 F60.00
G01 Z-0.1866
G01 F120.00
G01 X0.2222 Y11.6296
G01 X0.1529 Y11.5533
G01 X0.1467 Y11.5457
G01 X0.0854 Y11.4629
G01 X0.0323 Y11.3745
G01 X0.0277 Y11.3659
G01 X-0.0162 Y11.2727
G01 X-0.0511 Y11.1757
G01 X-0.0539 Y11.1663
G01 X-0.0788 Y11.0663
G01 X-0.0941 Y10.9644
G01 X-0.0950 Y10.9547
G01 X-0.1000 Y10.8517
G01 X-0.0950 Y10.7488
G01 X-0.0941 Y10.7390
G01 X-0.0788 Y10.6371
G01 X-0.0539 Y10.5372
G01 X-0.0511 Y10.5278
G01 X-0.0162 Y10.4308
G01 X0.0299 Y10.3332
G01 X0.0828 Y10.2448
G01 X0.0882 Y10.2366
G01 X0.1497 Y10.1539
G01 X0.2188 Y10.0775
G01 X0.2258 Y10.0705
G01 X0.3022 Y10.0014
G01 X0.3849 Y9.9399
G01 X0.3930 Y9.9345
G01 X0.4815 Y9.8816
G01 X0.5746 Y9.8375
G01 X0.5837 Y9.8337
G01 X0.6807 Y9.7991
G01 X0.7854 Y9.7729
G01 X0.8873 Y9.7576
G01 X0.8971 Y9.7567
G01 X1.0000 Y9.7517
G01 X1.1030 Y9.7567
G01 X1.1127 Y9.7576
G01 X1.2146 Y9.7729
G01 X1.3193 Y9.7991
G01 X1.4210 Y9.8355
G01 X1.5142 Y9.8794
G01 X1.5228 Y9.8840
G01 X1.6112 Y9.9371
G01 X1.6940 Y9.9984
G01 X1.7016 Y10.0046
G01 X1.7778 Y10.0739
G01 X1.8483 Y10.1515
G01 X5.1905 Y10.1515
G01 X13.0778 Y2.2641
G01 X13.1288 Y2.2180
G01 X13.1840 Y2.1770
G01 X13.2429 Y2.1417
G01 X13.3050 Y2.1123
G01 X13.3697 Y2.0892
G01 X13.4364 Y2.0725
G01 X13.5044 Y2.0624
G01 X13.5730 Y2.0590
G01 X23.7330 Y2.0590
G01 X23.7968 Y2.0620
G01 X23.8065 Y2.0630
G01 X23.8697 Y2.0725
G01 X23.9316 Y2.0878
G01 X23.9410 Y2.0907
G01 X24.0010 Y2.1123
G01 X24.0588 Y2.1395
G01 X24.0653 Y2.1429
G01 X24.1221 Y2.1770
G01 X24.1734 Y2.2149
G01 X24.1810 Y2.2212
G01 X24.2282 Y2.2641
G01 X26.7066 Y4.7424
G01 X26.7572 Y4.7554
G01 X26.8543 Y4.7901
G01 X26.8610 Y4.7930
G01 X26.9497 Y4.8350
G01 X26.9563 Y4.8384
G01 X27.0467 Y4.8927
G01 X27.1296 Y4.9540
G01 X27.1371 Y4.9602
G01 X27.2099 Y5.0261
G01 X27.2151 Y5.0312
G01 X27.2859 Y5.1095
G01 X27.3474 Y5.1922
G01 X27.3528 Y5.2003
G01 X27.4033 Y5.2845
G01 X27.4079 Y5.2931
G01 X27.4519 Y5.3863
G01 X27.4882 Y5.4880
G01 X27.5145 Y5.5927
G01 X27.5297 Y5.6946
G01 X27.5307 Y5.7044
G01 X27.5356 Y5.8073
G01 X27.5307 Y5.9102
G01 X27.5297 Y5.9200
G01 X27.5145 Y6.0219
G01 X27.4895 Y6.1219
G01 X27.4867 Y6.1313
G01 X27.4519 Y6.2283
G01 X27.4057 Y6.3258
G01 X27.3528 Y6.4143
G01 X27.3474 Y6.4224
G01 X27.2859 Y6.5051
G01 X27.2168 Y6.5816
G01 X27.2099 Y6.5885
G01 X27.1359 Y6.6555
G01 X27.1359 Y25.2791
G01 X27.2134 Y25.3495
G01 X27.2859 Y25.4295
G01 X27.3502 Y25.5162
G01 X27.4033 Y25.6045
G01 X27.4079 Y25.6131
G01 X27.4499 Y25.7019
G01 X27.4536 Y25.7109
G01 X27.4882 Y25.8080
G01 X27.5145 Y25.9127
G01 X27.5303 Y26.0195
G01 X27.5356 Y26.1273
G01 X27.5303 Y26.2351
G01 X27.5153 Y26.3371
G01 X27.5134 Y26.3467
G01 X27.4895 Y26.4419
G01 X27.4867 Y26.4513
G01 X27.4519 Y26.5483
G01 X27.4079 Y26.6415
G01 X27.4045 Y26.6480
G01 X27.3502 Y26.7384
G01 X27.2889 Y26.8213
G01 X27.2827 Y26.8288
G01 X27.2134 Y26.9051
G01 X27.1334 Y26.9776
G01 X27.0507 Y27.0391
G01 X27.0426 Y27.0445
G01 X26.9584 Y27.0950
G01 X26.9497 Y27.0996
G01 X26.8565 Y27.1436
G01 X26.7549 Y27.1799
G01 X26.6502 Y27.2062
G01 X26.5483 Y27.2214
G01 X26.5385 Y27.2224
G01 X26.4405 Y27.2272
G01 X26.4307 Y27.2272
G01 X26.3278 Y27.2220
G01 X26.2258 Y27.2070
G01 X26.2162 Y27.2051
G01 X26.1210 Y27.1812
G01 X26.1116 Y27.1784
G01 X26.0146 Y27.1436
G01 X25.9171 Y27.0974
G01 X25.8286 Y27.0445
G01 X25.8204 Y27.0391
G01 X25.7378 Y26.9776
G01 X25.6578 Y26.9051
G01 X25.5885 Y26.8288
G01 X25.5823 Y26.8213
G01 X25.5210 Y26.7384
G01 X25.4655 Y26.6458
G01 X25.4193 Y26.5483
G01 X25.3845 Y26.4513
G01 X25.3816 Y26.4419
G01 X25.3578 Y26.3467
G01 X25.3563 Y26.3395
G01 X25.3415 Y26.2400
G01 X25.3405 Y26.2302
G01 X25.3356 Y26.1273
G01 X25.3405 Y26.0244
G01 X25.3415 Y26.0146
G01 X25.3567 Y25.9127
G01 X25.3816 Y25.8127
G01 X25.3845 Y25.8033
G01 X25.4193 Y25.7063
G01 X25.4633 Y25.6131
G01 X25.4679 Y25.6045
G01 X25.5210 Y25.5162
G01 X25.5823 Y25.4333
G01 X25.5885 Y25.4258
G01 X25.6578 Y25.3495
G01 X25.7353 Y25.2791
G01 X25.7353 Y6.6555
G01 X25.6578 Y6.5851
G01 X25.5885 Y6.5088
G01 X25.5823 Y6.5013
G01 X25.5210 Y6.4184
G01 X25.4655 Y6.3258
G01 X25.4213 Y6.2327
G01 X25.4176 Y6.2237
G01 X25.3845 Y6.1313
G01 X25.3823 Y6.1243
G01 X25.3567 Y6.0219
G01 X25.3415 Y5.9200
G01 X25.3405 Y5.9102
G01 X25.3357 Y5.8122
G01 X25.3356 Y5.8048
G01 X25.3409 Y5.6995
G01 X25.3563 Y5.5951
G01 X25.3578 Y5.5879
G01 X25.3823 Y5.4903
G01 X25.4062 Y5.4228
G01 X23.4430 Y3.4596
G01 X13.8631 Y3.4596
G01 X5.9757 Y11.3469
G01 X5.9248 Y11.3931
G01 X5.8696 Y11.4340
G01 X5.8149 Y11.4670
G01 X5.8063 Y11.4716
G01 X5.7486 Y11.4988
G01 X5.6838 Y11.5219
G01 X5.6220 Y11.5375
G01 X5.6123 Y11.5394
G01 X5.5492 Y11.5487
G01 X5.4830 Y11.5520
G01 X1.8482 Y11.5521
G01 X1.7778 Y11.6296
G01 X1.7003 Y11.7000
G01 X1.7003 Y15.1192
G01 X1.7743 Y15.1862
G01 X1.7812 Y15.1931
G01 X1.8503 Y15.2695
G01 X1.9118 Y15.3522
G01 X1.9172 Y15.3604
G01 X1.9701 Y15.4488
G01 X2.0163 Y15.5464
G01 X2.0511 Y15.6434
G01 X2.0539 Y15.6528
G01 X2.0789 Y15.7528
G01 X2.0941 Y15.8547
G01 X2.0951 Y15.8644
G01 X2.1000 Y15.9674
G01 X2.0947 Y16.0752
G01 X2.0789 Y16.1820
G01 X2.0539 Y16.2820
G01 X2.0511 Y16.2913
G01 X2.0180 Y16.3837
G01 X2.0143 Y16.3928
G01 X1.9701 Y16.4859
G01 X1.9146 Y16.5785
G01 X1.8503 Y16.6652
G01 X1.7812 Y16.7416
G01 X1.7743 Y16.7486
G01 X1.7015 Y16.8145
G01 X1.6940 Y16.8207
G01 X1.6111 Y16.8820
G01 X1.5185 Y16.9375
G01 X1.4210 Y16.9836
G01 X1.3240 Y17.0185
G01 X1.3146 Y17.0213
G01 X1.2194 Y17.0452
G01 X1.2122 Y17.0467
G01 X1.1078 Y17.0621
G01 X1.0000 Y17.0674
G01 X0.8922 Y17.0621
G01 X0.7854 Y17.0462
G01 X0.6807 Y17.0200
G01 X0.5790 Y16.9836
G01 X0.4815 Y16.9375
G01 X0.3889 Y16.8820
G01 X0.3022 Y16.8177
G01 X0.2222 Y16.7452
G01 X0.1497 Y16.6652
G01 X0.0854 Y16.5785
G01 X0.0299 Y16.4859
G01 X-0.0163 Y16.3883
G01 X-0.0526 Y16.2867
G01 X-0.0778 Y16.1868
G01 X-0.0793 Y16.1796
G01 X-0.0941 Y16.0801
G01 X-0.0951 Y16.0703
G01 X-0.1000 Y15.9674
G01 X-0.0951 Y15.8644
G01 X-0.0941 Y15.8547
G01 X-0.0789 Y15.7528
G01 X-0.0539 Y15.6528
G01 X-0.0511 Y15.6434
G01 X-0.0163 Y15.5464
G01 X0.0277 Y15.4532
G01 X0.0323 Y15.4446
G01 X0.0854 Y15.3562
G01 X0.1467 Y15.2734
G01 X0.1529 Y15.2658
G01 X0.2222 Y15.1896
G01 X0.2997 Y15.1191
G01 X0.2997 Y11.6999
G00 Z2.0000
G00 X0.1197 Y11.7798
G01 F60.00
G01 Z-0.1866
G01 F120.00
G01 X0.0999 Y11.7616
G01 X0.0901 Y11.7519
G01 X0.0150 Y11.6690
G01 X0.0021 Y11.6529
G01 X-0.0563 Y11.5741
G01 X-0.0680 Y11.5571
G01 X-0.1221 Y11.4671
G01 X-0.1288 Y11.4551
G01 X-0.1350 Y11.4429
G01 X-0.1770 Y11.3541
G01 X-0.1825 Y11.3416
G01 X-0.1875 Y11.3288
G01 X-0.2228 Y11.2299
G01 X-0.2285 Y11.2101
G01 X-0.2524 Y11.1149
G01 X-0.2554 Y11.1015
G01 X-0.2577 Y11.0879
G01 X-0.2721 Y10.9908
G01 X-0.2738 Y10.9772
G01 X-0.2748 Y10.9635
G01 X-0.2796 Y10.8655
G01 X-0.2800 Y10.8517
G01 X-0.2796 Y10.8380
G01 X-0.2748 Y10.7400
G01 X-0.2738 Y10.7263
G01 X-0.2721 Y10.7126
G01 X-0.2577 Y10.6156
G01 X-0.2554 Y10.6020
G01 X-0.2524 Y10.5886
G01 X-0.2285 Y10.4934
G01 X-0.2249 Y10.4802
G01 X-0.2205 Y10.4671
G01 X-0.1875 Y10.3747
G01 X-0.1825 Y10.3619
G01 X-0.1770 Y10.3493
G01 X-0.1350 Y10.2606
G01 X-0.1288 Y10.2484
G01 X-0.1221 Y10.2364
G01 X-0.0716 Y10.1522
G01 X-0.0643 Y10.1406
G01 X-0.0563 Y10.1294
G01 X0.0021 Y10.0506
G01 X0.0106 Y10.0397
G01 X0.0196 Y10.0293
G01 X0.0855 Y9.9566
G01 X0.0949 Y9.9466
G01 X0.1049 Y9.9372
G01 X0.1776 Y9.8713
G01 X0.1880 Y9.8623
G01 X0.1988 Y9.8538
G01 X0.2777 Y9.7954
G01 X0.2889 Y9.7875
G01 X0.3005 Y9.7801
G01 X0.3847 Y9.7297
G01 X0.3966 Y9.7229
G01 X0.4089 Y9.7167
G01 X0.4976 Y9.6747
G01 X0.5102 Y9.6692
G01 X0.5230 Y9.6642
G01 X0.6154 Y9.6312
G01 X0.6285 Y9.6269
G01 X0.6417 Y9.6232
G01 X0.7369 Y9.5993
G01 X0.7503 Y9.5963
G01 X0.7639 Y9.5940
G01 X0.8609 Y9.5796
G01 X0.8746 Y9.5779
G01 X0.8883 Y9.5769
G01 X0.9863 Y9.5721
G01 X1.0000 Y9.5717
G01 X1.0138 Y9.5721
G01 X1.1118 Y9.5769
G01 X1.1255 Y9.5779
G01 X1.1391 Y9.5796
G01 X1.2362 Y9.5940
G01 X1.2565 Y9.5978
G01 X1.3583 Y9.6232
G01 X1.3716 Y9.6269
G01 X1.3846 Y9.6312
G01 X1.4770 Y9.6642
G01 X1.4899 Y9.6692
G01 X1.5024 Y9.6747
G01 X1.5911 Y9.7167
G01 X1.6094 Y9.7262
G01 X1.6995 Y9.7801
G01 X1.7112 Y9.7875
G01 X1.7224 Y9.7954
G01 X1.8067 Y9.8580
G01 X1.8225 Y9.8713
G01 X1.9002 Y9.9418
G01 X1.9099 Y9.9516
G01 X1.9281 Y9.9715
G01 X5.1159 Y9.9715
G01 X12.9506 Y2.1368
G01 X12.9605 Y2.1274
G01 X13.0042 Y2.0878
G01 X13.0146 Y2.0788
G01 X13.0254 Y2.0704
G01 X13.0727 Y2.0353
G01 X13.0840 Y2.0274
G01 X13.0956 Y2.0200
G01 X13.1461 Y1.9897
G01 X13.1581 Y1.9829
G01 X13.1703 Y1.9768
G01 X13.2236 Y1.9516
G01 X13.2362 Y1.9460
G01 X13.2490 Y1.9411
G01 X13.3044 Y1.9212
G01 X13.3175 Y1.9169
G01 X13.3307 Y1.9132
G01 X13.3879 Y1.8989
G01 X13.4013 Y1.8959
G01 X13.4148 Y1.8936
G01 X13.4731 Y1.8849
G01 X13.4867 Y1.8832
G01 X13.5005 Y1.8822
G01 X13.5593 Y1.8793
G01 X13.5730 Y1.8790
G01 X23.7330 Y1.8790
G01 X23.7468 Y1.8793
G01 X23.8056 Y1.8822
G01 X23.8193 Y1.8832
G01 X23.8330 Y1.8849
G01 X23.8912 Y1.8936
G01 X23.9048 Y1.8959
G01 X23.9182 Y1.8989
G01 X23.9753 Y1.9132
G01 X23.9886 Y1.9169
G01 X24.0016 Y1.9212
G01 X24.0571 Y1.9411
G01 X24.0699 Y1.9460
G01 X24.0825 Y1.9516
G01 X24.1357 Y1.9768
G01 X24.1480 Y1.9829
G01 X24.1600 Y1.9897
G01 X24.2105 Y2.0200
G01 X24.2221 Y2.0274
G01 X24.2333 Y2.0353
G01 X24.2806 Y2.0704
G01 X24.2915 Y2.0788
G01 X24.3019 Y2.0878
G01 X24.3455 Y2.1274
G01 X24.3555 Y2.1368
G01 X26.7987 Y4.5800
G01 X26.8202 Y4.5867
G01 X26.9126 Y4.6198
G01 X26.9254 Y4.6247
G01 X26.9380 Y4.6303
G01 X27.0267 Y4.6723
G01 X27.0390 Y4.6784
G01 X27.0509 Y4.6852
G01 X27.1351 Y4.7357
G01 X27.1467 Y4.7430
G01 X27.1580 Y4.7509
G01 X27.2368 Y4.8094
G01 X27.2476 Y4.8178
G01 X27.2580 Y4.8268
G01 X27.3307 Y4.8927
G01 X27.3455 Y4.9071
G01 X27.4161 Y4.9849
G01 X27.4250 Y4.9953
G01 X27.4335 Y5.0061
G01 X27.4920 Y5.0849
G01 X27.4999 Y5.0962
G01 X27.5072 Y5.1078
G01 X27.5577 Y5.1920
G01 X27.5644 Y5.2039
G01 X27.5706 Y5.2162
G01 X27.6126 Y5.3049
G01 X27.6182 Y5.3175
G01 X27.6231 Y5.3303
G01 X27.6562 Y5.4227
G01 X27.6605 Y5.4357
G01 X27.6641 Y5.4490
G01 X27.6880 Y5.5442
G01 X27.6910 Y5.5576
G01 X27.6933 Y5.5711
G01 X27.7077 Y5.6682
G01 X27.7094 Y5.6818
G01 X27.7104 Y5.6955
G01 X27.7153 Y5.7936
G01 X27.7156 Y5.8073
G01 X27.7153 Y5.8210
G01 X27.7104 Y5.9191
G01 X27.7094 Y5.9328
G01 X27.7077 Y5.9464
G01 X27.6933 Y6.0435
G01 X27.6910 Y6.0570
G01 X27.6880 Y6.0704
G01 X27.6641 Y6.1656
G01 X27.6605 Y6.1789
G01 X27.6562 Y6.1919
G01 X27.6231 Y6.2843
G01 X27.6182 Y6.2971
G01 X27.6126 Y6.3097
G01 X27.5706 Y6.3984
G01 X27.5644 Y6.4107
G01 X27.5577 Y6.4226
G01 X27.5072 Y6.5068
G01 X27.4999 Y6.5184
G01 X27.4920 Y6.5297
G01 X27.4335 Y6.6085
G01 X27.4206 Y6.6246
G01 X27.3455 Y6.7075
G01 X27.3358 Y6.7172
G01 X27.3159 Y6.7353
G01 X27.3159 Y25.1993
G01 X27.3358 Y25.2174
G01 X27.3455 Y25.2271
G01 X27.4161 Y25.3049
G01 X27.4293 Y25.3206
G01 X27.4920 Y25.4049
G01 X27.4999 Y25.4162
G01 X27.5072 Y25.4278
G01 X27.5577 Y25.5120
G01 X27.5644 Y25.5239
G01 X27.5706 Y25.5362
G01 X27.6126 Y25.6249
G01 X27.6182 Y25.6375
G01 X27.6231 Y25.6503
G01 X27.6562 Y25.7427
G01 X27.6605 Y25.7557
G01 X27.6641 Y25.7690
G01 X27.6880 Y25.8642
G01 X27.6923 Y25.8843
G01 X27.7077 Y25.9882
G01 X27.7094 Y26.0018
G01 X27.7104 Y26.0155
G01 X27.7153 Y26.1136
G01 X27.7156 Y26.1273
G01 X27.7153 Y26.1410
G01 X27.7104 Y26.2391
G01 X27.7094 Y26.2528
G01 X27.7077 Y26.2664
G01 X27.6933 Y26.3635
G01 X27.6910 Y26.3770
G01 X27.6880 Y26.3904
G01 X27.6641 Y26.4856
G01 X27.6605 Y26.4989
G01 X27.6562 Y26.5119
G01 X27.6231 Y26.6043
G01 X27.6182 Y26.6171
G01 X27.6126 Y26.6297
G01 X27.5706 Y26.7184
G01 X27.5644 Y26.7307
G01 X27.5577 Y26.7426
G01 X27.5072 Y26.8268
G01 X27.4999 Y26.8384
G01 X27.4920 Y26.8497
G01 X27.4335 Y26.9285
G01 X27.4250 Y26.9393
G01 X27.4161 Y26.9497
G01 X27.3502 Y27.0224
G01 X27.3407 Y27.0324
G01 X27.3307 Y27.0419
G01 X27.2580 Y27.1078
G01 X27.2476 Y27.1168
G01 X27.2368 Y27.1252
G01 X27.1580 Y27.1837
G01 X27.1467 Y27.1916
G01 X27.1351 Y27.1989
G01 X27.0509 Y27.2494
G01 X27.0390 Y27.2562
G01 X27.0267 Y27.2623
G01 X26.9380 Y27.3043
G01 X26.9254 Y27.3099
G01 X26.9126 Y27.3148
G01 X26.8202 Y27.3479
G01 X26.8072 Y27.3522
G01 X26.7939 Y27.3558
G01 X26.6987 Y27.3797
G01 X26.6853 Y27.3827
G01 X26.6718 Y27.3851
G01 X26.5747 Y27.3995
G01 X26.5611 Y27.4011
G01 X26.5473 Y27.4021
G01 X26.4493 Y27.4070
G01 X26.4356 Y27.4073
G01 X26.4219 Y27.4070
G01 X26.3238 Y27.4021
G01 X26.3101 Y27.4011
G01 X26.2965 Y27.3995
G01 X26.1994 Y27.3851
G01 X26.1859 Y27.3827
G01 X26.1725 Y27.3797
G01 X26.0773 Y27.3558
G01 X26.0640 Y27.3522
G01 X26.0510 Y27.3479
G01 X25.9586 Y27.3148
G01 X25.9458 Y27.3099
G01 X25.9332 Y27.3043
G01 X25.8445 Y27.2623
G01 X25.8322 Y27.2562
G01 X25.8202 Y27.2494
G01 X25.7361 Y27.1989
G01 X25.7245 Y27.1916
G01 X25.7132 Y27.1837
G01 X25.6344 Y27.1252
G01 X25.6236 Y27.1168
G01 X25.6132 Y27.1078
G01 X25.5404 Y27.0419
G01 X25.5305 Y27.0324
G01 X25.5210 Y27.0224
G01 X25.4551 Y26.9497
G01 X25.4461 Y26.9393
G01 X25.4377 Y26.9285
G01 X25.3792 Y26.8497
G01 X25.3713 Y26.8384
G01 X25.3640 Y26.8268
G01 X25.3135 Y26.7426
G01 X25.3067 Y26.7307
G01 X25.3006 Y26.7184
G01 X25.2586 Y26.6297
G01 X25.2530 Y26.6171
G01 X25.2481 Y26.6043
G01 X25.2150 Y26.5119
G01 X25.2107 Y26.4989
G01 X25.2070 Y26.4856
G01 X25.1832 Y26.3904
G01 X25.1789 Y26.3703
G01 X25.1634 Y26.2664
G01 X25.1618 Y26.2528
G01 X25.1607 Y26.2391
G01 X25.1559 Y26.1410
G01 X25.1556 Y26.1273
G01 X25.1559 Y26.1136
G01 X25.1607 Y26.0155
G01 X25.1618 Y26.0018
G01 X25.1634 Y25.9882
G01 X25.1778 Y25.8911
G01 X25.1802 Y25.8776
G01 X25.1832 Y25.8642
G01 X25.2070 Y25.7690
G01 X25.2128 Y25.7492
G01 X25.2481 Y25.6503
G01 X25.2530 Y25.6375
G01 X25.2586 Y25.6249
G01 X25.3006 Y25.5362
G01 X25.3067 Y25.5239
G01 X25.3135 Y25.5120
G01 X25.3676 Y25.4219
G01 X25.3792 Y25.4049
G01 X25.4377 Y25.3261
G01 X25.4506 Y25.3100
G01 X25.5257 Y25.2271
G01 X25.5354 Y25.2174
G01 X25.5553 Y25.1993
G01 X25.5553 Y6.7353
G01 X25.5354 Y6.7172
G01 X25.5257 Y6.7075
G01 X25.4551 Y6.6297
G01 X25.4461 Y6.6193
G01 X25.4377 Y6.6085
G01 X25.3792 Y6.5297
G01 X25.3713 Y6.5184
G01 X25.3640 Y6.5068
G01 X25.3135 Y6.4226
G01 X25.3067 Y6.4107
G01 X25.3006 Y6.3984
G01 X25.2586 Y6.3097
G01 X25.2530 Y6.2971
G01 X25.2481 Y6.2843
G01 X25.2150 Y6.1919
G01 X25.2088 Y6.1723
G01 X25.1832 Y6.0704
G01 X25.1802 Y6.0570
G01 X25.1778 Y6.0435
G01 X25.1634 Y5.9464
G01 X25.1618 Y5.9328
G01 X25.1607 Y5.9191
G01 X25.1559 Y5.8210
G01 X25.1556 Y5.8073
G01 X25.1559 Y5.7936
G01 X25.1607 Y5.6955
G01 X25.1618 Y5.6818
G01 X25.1634 Y5.6682
G01 X25.1778 Y5.5711
G01 X25.1802 Y5.5576
G01 X25.1832 Y5.5442
G01 X25.2012 Y5.4724
G01 X23.3684 Y3.6396
G01 X13.9377 Y3.6396
G01 X6.1030 Y11.4742
G01 X6.0931 Y11.4837
G01 X6.0494 Y11.5233
G01 X6.0390 Y11.5322
G01 X6.0282 Y11.5407
G01 X5.9809 Y11.5758
G01 X5.9696 Y11.5837
G01 X5.9580 Y11.5911
G01 X5.9075 Y11.6213
G01 X5.8955 Y11.6281
G01 X5.8833 Y11.6343
G01 X5.8300 Y11.6595
G01 X5.8174 Y11.6651
G01 X5.8046 Y11.6700
G01 X5.7491 Y11.6898
G01 X5.7361 Y11.6942
G01 X5.7229 Y11.6978
G01 X5.6657 Y11.7121
G01 X5.6523 Y11.7151
G01 X5.6388 Y11.7175
G01 X5.5805 Y11.7261
G01 X5.5668 Y11.7278
G01 X5.5531 Y11.7288
G01 X5.4943 Y11.7317
G01 X5.4806 Y11.7321
G01 X1.9280 Y11.7321
G01 X1.9051 Y11.7568
G01 X1.8803 Y11.7798
G01 X1.8803 Y15.0394
G01 X1.9002 Y15.0575
G01 X1.9099 Y15.0672
G01 X1.9850 Y15.1501
G01 X1.9979 Y15.1662
G01 X2.0564 Y15.2450
G01 X2.0643 Y15.2562
G01 X2.0716 Y15.2679
G01 X2.1221 Y15.3520
G01 X2.1289 Y15.3640
G01 X2.1350 Y15.3763
G01 X2.1770 Y15.4650
G01 X2.1826 Y15.4775
G01 X2.1875 Y15.4904
G01 X2.2206 Y15.5828
G01 X2.2249 Y15.5958
G01 X2.2285 Y15.6091
G01 X2.2524 Y15.7042
G01 X2.2554 Y15.7177
G01 X2.2578 Y15.7312
G01 X2.2722 Y15.8283
G01 X2.2738 Y15.8419
G01 X2.2748 Y15.8556
G01 X2.2797 Y15.9536
G01 X2.2800 Y15.9674
G01 X2.2797 Y15.9811
G01 X2.2748 Y16.0791
G01 X2.2731 Y16.0997
G01 X2.2578 Y16.2035
G01 X2.2554 Y16.2171
G01 X2.2524 Y16.2305
G01 X2.2285 Y16.3257
G01 X2.2249 Y16.3389
G01 X2.2206 Y16.3520
G01 X2.1875 Y16.4444
G01 X2.1826 Y16.4572
G01 X2.1770 Y16.4698
G01 X2.1350 Y16.5585
G01 X2.1289 Y16.5708
G01 X2.1221 Y16.5827
G01 X2.0716 Y16.6669
G01 X2.0643 Y16.6785
G01 X2.0564 Y16.6897
G01 X1.9979 Y16.7686
G01 X1.9895 Y16.7794
G01 X1.9805 Y16.7898
G01 X1.9146 Y16.8625
G01 X1.9051 Y16.8725
G01 X1.8951 Y16.8819
G01 X1.8224 Y16.9478
G01 X1.8120 Y16.9568
G01 X1.8012 Y16.9653
G01 X1.7224 Y17.0237
G01 X1.7111 Y17.0317
G01 X1.6995 Y17.0390
G01 X1.6153 Y17.0895
G01 X1.6034 Y17.0962
G01 X1.5911 Y17.1024
G01 X1.5024 Y17.1444
G01 X1.4898 Y17.1499
G01 X1.4770 Y17.1549
G01 X1.3846 Y17.1879
G01 X1.3716 Y17.1923
G01 X1.3583 Y17.1959
G01 X1.2631 Y17.2198
G01 X1.2497 Y17.2228
G01 X1.2362 Y17.2251
G01 X1.1391 Y17.2395
G01 X1.1255 Y17.2412
G01 X1.1118 Y17.2422
G01 X1.0137 Y17.2470
G01 X1.0000 Y17.2474
G01 X0.9863 Y17.2470
G01 X0.8882 Y17.2422
G01 X0.8745 Y17.2412
G01 X0.8609 Y17.2395
G01 X0.7638 Y17.2251
G01 X0.7503 Y17.2228
G01 X0.7369 Y17.2198
G01 X0.6417 Y17.1959
G01 X0.6284 Y17.1923
G01 X0.6154 Y17.1879
G01 X0.5230 Y17.1549
G01 X0.5102 Y17.1499
G01 X0.4976 Y17.1444
G01 X0.4089 Y17.1024
G01 X0.3966 Y17.0962
G01 X0.3847 Y17.0895
G01 X0.3005 Y17.0390
G01 X0.2889 Y17.0317
G01 X0.2776 Y17.0237
G01 X0.1988 Y16.9653
G01 X0.1880 Y16.9568
G01 X0.1776 Y16.9478
G01 X0.1049 Y16.8819
G01 X0.0949 Y16.8725
G01 X0.0854 Y16.8625
G01 X0.0195 Y16.7898
G01 X0.0105 Y16.7794
G01 X0.0021 Y16.7686
G01 X-0.0564 Y16.6897
G01 X-0.0643 Y16.6785
G01 X-0.0716 Y16.6669
G01 X-0.1221 Y16.5827
G01 X-0.1289 Y16.5708
G01 X-0.1350 Y16.5585
G01 X-0.1770 Y16.4698
G01 X-0.1826 Y16.4572
G01 X-0.1875 Y16.4444
G01 X-0.2206 Y16.3520
G01 X-0.2249 Y16.3389
G01 X-0.2285 Y16.3257
G01 X-0.2524 Y16.2305
G01 X-0.2554 Y16.2171
G01 X-0.2578 Y16.2035
G01 X-0.2722 Y16.1065
G01 X-0.2738 Y16.0928
G01 X-0.2748 Y16.0791
G01 X-0.2797 Y15.9811
G01 X-0.2800 Y15.9674
G01 X-0.2797 Y15.9536
G01 X-0.2748 Y15.8556
G01 X-0.2738 Y15.8419
G01 X-0.2722 Y15.8283
G01 X-0.2578 Y15.7312
G01 X-0.2554 Y15.7177
G01 X-0.2524 Y15.7042
G01 X-0.2285 Y15.6091
G01 X-0.2228 Y15.5893
G01 X-0.1875 Y15.4904
G01 X-0.1826 Y15.4775
G01 X-0.1770 Y15.4650
G01 X-0.1350 Y15.3763
G01 X-0.1289 Y15.3640
G01 X-0.1221 Y15.3520
G01 X-0.0680 Y15.2620
G01 X-0.0564 Y15.2450
G01 X0.0021 Y15.1662
G01 X0.0150 Y15.1501
G01 X0.0901 Y15.0672
G01 X0.0998 Y15.0575
G01 X0.1197 Y15.0393
G01 X0.1197 Y11.7798
G00 Z2.0000
G00 X-0.0603 Y11.8541
G01 F60.00
G01 Z-0.1866
G01 F120.00
G01 X-0.1138 Y11.7951
G01 X-0.1286 Y11.7780
G01 X-0.1425 Y11.7602
G01 X-0.2009 Y11.6813
G01 X-0.2139 Y11.6629
G01 X-0.2201 Y11.6534
G01 X-0.2764 Y11.5596
G01 X-0.2876 Y11.5400
G01 X-0.2928 Y11.5300
G01 X-0.3444 Y11.4208
G01 X-0.3530 Y11.4000
G01 X-0.3570 Y11.3894
G01 X-0.3900 Y11.2970
G01 X-0.3971 Y11.2756
G01 X-0.4031 Y11.2538
G01 X-0.4270 Y11.1586
G01 X-0.4319 Y11.1366
G01 X-0.4358 Y11.1143
G01 X-0.4502 Y11.0173
G01 X-0.4529 Y10.9948
G01 X-0.4546 Y10.9723
G01 X-0.4594 Y10.8743
G01 X-0.4600 Y10.8517
G01 X-0.4594 Y10.8292
G01 X-0.4539 Y10.7199
G01 X-0.4517 Y10.6974
G01 X-0.4502 Y10.6862
G01 X-0.4358 Y10.5892
G01 X-0.4319 Y10.5669
G01 X-0.4270 Y10.5449
G01 X-0.4031 Y10.4497
G01 X-0.3971 Y10.4279
G01 X-0.3900 Y10.4065
G01 X-0.3570 Y10.3141
G01 X-0.3488 Y10.2930
G01 X-0.3397 Y10.2724
G01 X-0.2977 Y10.1837
G01 X-0.2876 Y10.1635
G01 X-0.2764 Y10.1439
G01 X-0.2260 Y10.0597
G01 X-0.2139 Y10.0406
G01 X-0.2009 Y10.0221
G01 X-0.1425 Y9.9433
G01 X-0.1286 Y9.9255
G01 X-0.1138 Y9.9084
G01 X-0.0479 Y9.8357
G01 X-0.0323 Y9.8194
G01 X-0.0160 Y9.8038
G01 X0.0567 Y9.7379
G01 X0.0738 Y9.7231
G01 X0.0826 Y9.7161
G01 X0.1704 Y9.6508
G01 X0.1889 Y9.6378
G01 X0.2080 Y9.6257
G01 X0.2921 Y9.5753
G01 X0.3118 Y9.5641
G01 X0.3320 Y9.5540
G01 X0.4207 Y9.5120
G01 X0.4413 Y9.5029
G01 X0.4624 Y9.4948
G01 X0.5548 Y9.4617
G01 X0.5762 Y9.4546
G01 X0.5980 Y9.4486
G01 X0.7042 Y9.4221
G01 X0.7152 Y9.4198
G01 X0.7374 Y9.4159
G01 X0.8345 Y9.4015
G01 X0.8569 Y9.3988
G01 X0.8794 Y9.3971
G01 X0.9775 Y9.3923
G01 X0.9887 Y9.3919
G01 X1.0113 Y9.3919
G01 X1.1206 Y9.3971
G01 X1.1431 Y9.3988
G01 X1.1655 Y9.4015
G01 X1.2626 Y9.4159
G01 X1.2849 Y9.4198
G01 X1.3069 Y9.4247
G01 X1.4021 Y9.4486
G01 X1.4238 Y9.4546
G01 X1.4453 Y9.4617
G01 X1.5377 Y9.4948
G01 X1.5587 Y9.5029
G01 X1.5794 Y9.5120
G01 X1.6681 Y9.5540
G01 X1.6883 Y9.5641
G01 X1.7079 Y9.5753
G01 X1.8017 Y9.6316
G01 X1.8112 Y9.6378
G01 X1.8296 Y9.6508
G01 X1.9174 Y9.7161
G01 X1.9349 Y9.7304
G01 X1.9433 Y9.7379
G01 X2.0024 Y9.7915
G01 X5.0414 Y9.7915
G01 X12.8233 Y2.0096
G01 X12.8396 Y1.9940
G01 X12.8833 Y1.9544
G01 X12.9004 Y1.9397
G01 X12.9182 Y1.9258
G01 X12.9655 Y1.8907
G01 X12.9840 Y1.8777
G01 X13.0030 Y1.8656
G01 X13.0536 Y1.8353
G01 X13.0732 Y1.8242
G01 X13.0934 Y1.8140
G01 X13.1466 Y1.7889
G01 X13.1673 Y1.7797
G01 X13.1883 Y1.7716
G01 X13.2438 Y1.7517
G01 X13.2652 Y1.7447
G01 X13.2870 Y1.7386
G01 X13.3441 Y1.7243
G01 X13.3662 Y1.7194
G01 X13.3884 Y1.7155
G01 X13.4467 Y1.7069
G01 X13.4691 Y1.7041
G01 X13.4916 Y1.7024
G01 X13.5505 Y1.6996
G01 X13.5730 Y1.6990
G01 X23.7330 Y1.6990
G01 X23.7556 Y1.6996
G01 X23.8144 Y1.7024
G01 X23.8370 Y1.7041
G01 X23.8594 Y1.7069
G01 X23.9288 Y1.7173
G01 X23.9399 Y1.7194
G01 X23.9619 Y1.7243
G01 X24.0191 Y1.7386
G01 X24.0408 Y1.7447
G01 X24.0623 Y1.7517
G01 X24.1177 Y1.7716
G01 X24.1388 Y1.7797
G01 X24.1492 Y1.7842
G01 X24.2127 Y1.8140
G01 X24.2328 Y1.8242
G01 X24.2525 Y1.8353
G01 X24.3126 Y1.8715
G01 X24.3221 Y1.8777
G01 X24.3406 Y1.8907
G01 X24.3879 Y1.9258
G01 X24.4057 Y1.9397
G01 X24.4228 Y1.9544
G01 X24.4664 Y1.9940
G01 X24.4828 Y2.0095
G01 X26.8959 Y4.4226
G01 X26.9732 Y4.4503
G01 X26.9943 Y4.4584
G01 X27.0149 Y4.4676
G01 X27.1037 Y4.5095
G01 X27.1138 Y4.5145
G01 X27.1337 Y4.5251
G01 X27.2373 Y4.5872
G01 X27.2467 Y4.5934
G01 X27.2652 Y4.6064
G01 X27.3440 Y4.6648
G01 X27.3618 Y4.6787
G01 X27.3789 Y4.6935
G01 X27.4516 Y4.7594
G01 X27.4680 Y4.7749
G01 X27.4759 Y4.7830
G01 X27.5494 Y4.8640
G01 X27.5642 Y4.8811
G01 X27.5781 Y4.8989
G01 X27.6365 Y4.9777
G01 X27.6495 Y4.9962
G01 X27.6557 Y5.0056
G01 X27.7121 Y5.0994
G01 X27.7232 Y5.1191
G01 X27.7333 Y5.1392
G01 X27.7753 Y5.2279
G01 X27.7845 Y5.2486
G01 X27.7926 Y5.2696
G01 X27.8256 Y5.3620
G01 X27.8327 Y5.3835
G01 X27.8387 Y5.4052
G01 X27.8626 Y5.5004
G01 X27.8675 Y5.5225
G01 X27.8714 Y5.5447
G01 X27.8858 Y5.6418
G01 X27.8886 Y5.6642
G01 X27.8902 Y5.6867
G01 X27.8950 Y5.7847
G01 X27.8956 Y5.8073
G01 X27.8950 Y5.8299
G01 X27.8902 Y5.9279
G01 X27.8886 Y5.9504
G01 X27.8858 Y5.9728
G01 X27.8714 Y6.0699
G01 X27.8675 Y6.0921
G01 X27.8626 Y6.1142
G01 X27.8387 Y6.2094
G01 X27.8359 Y6.2203
G01 X27.8293 Y6.2419
G01 X27.7926 Y6.3450
G01 X27.7886 Y6.3555
G01 X27.7800 Y6.3764
G01 X27.7284 Y6.4855
G01 X27.7178 Y6.5054
G01 X27.7121 Y6.5152
G01 X27.6557 Y6.6090
G01 X27.6495 Y6.6184
G01 X27.6365 Y6.6369
G01 X27.5781 Y6.7157
G01 X27.5642 Y6.7335
G01 X27.5494 Y6.7506
G01 X27.4959 Y6.8097
G01 X27.4959 Y25.1249
G01 X27.5494 Y25.1840
G01 X27.5642 Y25.2011
G01 X27.5781 Y25.2189
G01 X27.6365 Y25.2977
G01 X27.6495 Y25.3162
G01 X27.6616 Y25.3352
G01 X27.7121 Y25.4194
G01 X27.7232 Y25.4391
G01 X27.7333 Y25.4592
G01 X27.7753 Y25.5479
G01 X27.7845 Y25.5686
G01 X27.7926 Y25.5896
G01 X27.8293 Y25.6927
G01 X27.8327 Y25.7035
G01 X27.8387 Y25.7252
G01 X27.8626 Y25.8204
G01 X27.8675 Y25.8425
G01 X27.8714 Y25.8647
G01 X27.8873 Y25.9730
G01 X27.8895 Y25.9954
G01 X27.8902 Y26.0067
G01 X27.8950 Y26.1047
G01 X27.8956 Y26.1273
G01 X27.8950 Y26.1499
G01 X27.8902 Y26.2479
G01 X27.8886 Y26.2704
G01 X27.8858 Y26.2928
G01 X27.8714 Y26.3899
G01 X27.8675 Y26.4121
G01 X27.8626 Y26.4342
G01 X27.8387 Y26.5294
G01 X27.8327 Y26.5511
G01 X27.8256 Y26.5726
G01 X27.7926 Y26.6650
G01 X27.7845 Y26.6860
G01 X27.7753 Y26.7067
G01 X27.7333 Y26.7954
G01 X27.7232 Y26.8155
G01 X27.7121 Y26.8352
G01 X27.6616 Y26.9194
G01 X27.6495 Y26.9384
G01 X27.6365 Y26.9569
G01 X27.5781 Y27.0357
G01 X27.5642 Y27.0535
G01 X27.5494 Y27.0706
G01 X27.4835 Y27.1433
G01 X27.4680 Y27.1597
G01 X27.4516 Y27.1752
G01 X27.3789 Y27.2411
G01 X27.3618 Y27.2559
G01 X27.3440 Y27.2698
G01 X27.2652 Y27.3282
G01 X27.2467 Y27.3412
G01 X27.2276 Y27.3533
G01 X27.1435 Y27.4038
G01 X27.1238 Y27.4149
G01 X27.1037 Y27.4251
G01 X27.0149 Y27.4670
G01 X26.9943 Y27.4762
G01 X26.9732 Y27.4843
G01 X26.8808 Y27.5174
G01 X26.8594 Y27.5244
G01 X26.8376 Y27.5305
G01 X26.7425 Y27.5543
G01 X26.7204 Y27.5592
G01 X26.6982 Y27.5631
G01 X26.6011 Y27.5775
G01 X26.5787 Y27.5803
G01 X26.5562 Y27.5819
G01 X26.4582 Y27.5867
G01 X26.4356 Y27.5873
G01 X26.4243 Y27.5872
G01 X26.3150 Y27.5819
G01 X26.2925 Y27.5803
G01 X26.2701 Y27.5775
G01 X26.1730 Y27.5631
G01 X26.1508 Y27.5592
G01 X26.1287 Y27.5543
G01 X26.0226 Y27.5276
G01 X26.0010 Y27.5210
G01 X25.9903 Y27.5174
G01 X25.8979 Y27.4843
G01 X25.8769 Y27.4762
G01 X25.8562 Y27.4670
G01 X25.7675 Y27.4251
G01 X25.7474 Y27.4149
G01 X25.7277 Y27.4038
G01 X25.6435 Y27.3533
G01 X25.6245 Y27.3412
G01 X25.6060 Y27.3282
G01 X25.5272 Y27.2698
G01 X25.5094 Y27.2559
G01 X25.4923 Y27.2411
G01 X25.4196 Y27.1752
G01 X25.4032 Y27.1597
G01 X25.3876 Y27.1433
G01 X25.3143 Y27.0622
G01 X25.2999 Y27.0447
G01 X25.2931 Y27.0357
G01 X25.2346 Y26.9569
G01 X25.2216 Y26.9384
G01 X25.2096 Y26.9194
G01 X25.1591 Y26.8352
G01 X25.1480 Y26.8155
G01 X25.1378 Y26.7954
G01 X25.0959 Y26.7067
G01 X25.0867 Y26.6860
G01 X25.0786 Y26.6650
G01 X25.0455 Y26.5726
G01 X25.0385 Y26.5511
G01 X25.0324 Y26.5294
G01 X25.0086 Y26.4342
G01 X25.0036 Y26.4121
G01 X24.9998 Y26.3899
G01 X24.9854 Y26.2928
G01 X24.9826 Y26.2704
G01 X24.9810 Y26.2479
G01 X24.9761 Y26.1499
G01 X24.9756 Y26.1273
G01 X24.9761 Y26.1047
