(G-CODE GENERATED BY FLATCAM v8.994 - www.flatcam.org - Version Date: 2020/11/7)

(Name: Drill_PTH_Through.DRL_cnc)
(Type: G-code from Geometry)
(Units: MM)

(Created on Friday, 05 July 2024 at 16:53)

(This preprocessor is the default preprocessor used by FlatCAM.)
(It is made to work with MACH3 compatible motion controllers.)


(TOOLS DIAMETER: )
(Tool: 1 -> Dia: 1.301)

(FEEDRATE Z: )
(Tool: 1 -> Feedrate: 300)

(FEEDRATE RAPIDS: )
(Tool: 1 -> Feedrate Rapids: 1500)

(Z_CUT: )
(Tool: 1 -> Z_Cut: -2.5)

(Tools Offset: )
(Tool: 1 -> Offset Z: 0.0)

(Z_MOVE: )
(Tool: 1 -> Z_Move: 2)

(Z Toolchange: 15.0 mm)
(X,Y Toolchange: 0.0000, 0.0000 mm)
(Z Start: None mm)
(Z End: 0.5 mm)
(X,Y End: None mm)
(Steps per circle: 64)
(Preprocessor Excellon: default)

(X range:    0.3495 ...   32.0945  mm)
(Y range:    5.1568 ...   26.7778  mm)

(Spindle Speed: 0 RPM)
G21
G90
G94

G01 F300.00

M5
G00 Z15.0000
T1
G00 X0.0000 Y0.0000                
M6
(MSG, Change to Tool Dia = 1.3010 ||| Total drills for tool T1 = 13)
M0
G00 Z15.0000

G01 F300.00
M03
G00 X1.0000 Y15.9673
G01 Z-2.5000
G01 Z0
G00 Z2.0000
G00 X1.0000 Y10.8513
G01 Z-2.5000
G01 Z0
G00 Z2.0000
G00 X1.0000 Y5.8433
G01 Z-2.5000
G01 Z0
G00 Z2.0000
G00 X16.2760 Y5.8073
G01 Z-2.5000
G01 Z0
G00 Z2.0000
G00 X21.2840 Y5.8073
G01 Z-2.5000
G01 Z0
G00 Z2.0000
G00 X26.4360 Y5.8073
G01 Z-2.5000
G01 Z0
G00 Z2.0000
G00 X31.4440 Y5.8073
G01 Z-2.5000
G01 Z0
G00 Z2.0000
G00 X31.4440 Y26.1273
G01 Z-2.5000
G01 Z0
G00 Z2.0000
G00 X26.4360 Y26.1273
G01 Z-2.5000
G01 Z0
G00 Z2.0000
G00 X21.2840 Y26.1273
G01 Z-2.5000
G01 Z0
G00 Z2.0000
G00 X16.2760 Y26.1273
G01 Z-2.5000
G01 Z0
G00 Z2.0000
G00 X1.0000 Y26.1273
G01 Z-2.5000
G01 Z0
G00 Z2.0000
G00 X1.0000 Y21.0473
G01 Z-2.5000
G01 Z0
G00 Z2.0000
M05
G00 Z0.50


